%
(Header)
(Generated by gcodetools from Inkscape.)
(Using default header. To add your own header create file "header" in the output dir.)
M3
(Header end.)
G21 (All units in mm)

(Start cutting path id: path943)
(Change tool to Default tool)

G00 Z5.000000
G00 X151.857430 Y8.462416

G01 Z-0.125000 F100.0(Penetrate)
G03 X152.737850 Y7.777592 Z-0.125000 I2.814918 J2.710549 F400.000000
G03 X154.006089 Y7.238227 Z-0.125000 I2.953305 J5.183553
G03 X155.392383 Y6.918186 Z-0.125000 I3.587686 J12.377998
G03 X156.305152 Y6.839651 Z-0.125000 I0.912769 J5.265022
G03 X158.297430 Y7.195084 Z-0.125000 I0.000000 J5.761286
G03 X159.549627 Y8.035372 Z-0.125000 I-1.106238 J3.001669
G03 X160.321825 Y9.383248 Z-0.125000 I-2.777903 J2.486594
G03 X160.645442 Y11.451720 Z-0.125000 I-6.448728 J2.068471
G03 X160.358058 Y13.042629 Z-0.125000 I-4.547189 J-0.000000
G03 X159.614086 Y14.213269 Z-0.125000 I-3.135694 J-1.171088
G03 X158.512056 Y15.167423 Z-0.125000 I-5.026809 J-4.692381
G03 X156.992724 Y16.035318 Z-0.125000 I-5.654977 J-8.135751
G02 X156.510924 Y16.283754 Z-0.125000 I2.566011 J5.567750
G02 X156.197720 Y16.490833 Z-0.125000 I1.462218 J2.551994
G02 X155.945964 Y16.742976 Z-0.125000 I0.781121 J1.031678
G02 X155.896909 Y16.889405 Z-0.125000 I0.194018 J0.146429
G02 X155.969701 Y17.131728 Z-0.125000 I0.439738 J-0.000000
G02 X156.197720 Y17.344919 Z-0.125000 I0.558529 J-0.368840
G02 X156.511771 Y17.465608 Z-0.125000 I0.557513 J-0.981786
G02 X156.971237 Y17.515737 Z-0.125000 I0.459466 J-2.080611
G02 X157.521454 Y17.465012 Z-0.125000 I-0.000000 J-3.009475
G02 X158.195972 Y17.287982 Z-0.125000 I-0.876408 J-4.712813
G02 X158.868453 Y17.026484 Z-0.125000 I-2.226008 J-6.719977
G02 X159.528139 Y16.690121 Z-0.125000 I-3.052786 J-6.802287
G01 X160.623955 Y19.964118 Z-0.125000
G03 X159.749938 Y20.657555 Z-0.125000 I-3.016920 J-2.905037
G03 X158.711650 Y21.102902 Z-0.125000 I-2.197329 J-3.689868
G03 X157.604169 Y21.367927 Z-0.125000 I-2.519000 J-8.079856
G03 X156.691910 Y21.444536 Z-0.125000 I-0.912259 J-5.393261
G03 X154.668237 Y21.090816 Z-0.125000 I-0.000000 J-5.965687
G03 X153.297032 Y20.220344 Z-0.125000 I1.264888 J-3.507733
G03 X152.425726 Y18.849714 Z-0.125000 I2.638133 J-2.639311
G03 X152.072296 Y16.832467 Z-0.125000 I5.580131 J-2.017246
G03 X152.359681 Y15.241558 Z-0.125000 I4.547189 J-0.000000
G03 X153.103652 Y14.070918 Z-0.125000 I3.135694 J1.171088
G03 X154.237814 Y13.133205 Z-0.125000 I5.498784 J5.496028
G03 X155.789474 Y12.248869 Z-0.125000 I6.428534 J9.476086
G02 X156.221509 Y12.020243 Z-0.125000 I-1.395455 J-3.159517
G02 X156.520019 Y11.793355 Z-0.125000 I-1.075322 J-1.724580
G02 X156.771775 Y11.541211 Z-0.125000 I-0.781121 J-1.031678
G02 X156.820830 Y11.394782 Z-0.125000 I-0.194018 J-0.146429
G02 X156.755137 Y11.145365 Z-0.125000 I-0.506328 J-0.000000
G02 X156.562991 Y10.939268 Z-0.125000 I-0.525895 J0.297677
G02 X156.290552 Y10.816924 Z-0.125000 I-0.508100 J0.766948
G02 X155.918393 Y10.768450 Z-0.125000 I-0.372158 J1.404378
G02 X155.367925 Y10.821581 Z-0.125000 I0.000000 J2.878176
G02 X154.457307 Y11.053147 Z-0.125000 I1.589011 J8.154929
G02 X153.598888 Y11.385594 Z-0.125000 I2.488005 J7.698835
G02 X152.953245 Y11.736417 Z-0.125000 I2.132199 J4.693549
G01 X151.857430 Y8.462416 Z-0.125000
G00 Z5.000000

(End cutting path id: path943)


(Start cutting path id: path941)
(Change tool to Default tool)

G00 Z5.000000
G00 X150.200282 Y20.932084

G01 Z-0.125000 F100.0(Penetrate)
G01 X150.200282 Y6.697304 Z-0.125000 F400.000000
G02 X150.002822 Y4.981660 Z-0.125000 I-7.551967 J0.000000
G02 X149.469737 Y3.565653 Z-0.125000 I-5.645189 J1.316897
G02 X148.599590 Y2.322323 Z-0.125000 I-4.834520 J2.457295
G02 X147.449998 Y1.401965 Z-0.125000 I-3.733005 J3.484651
G02 X146.099806 Y0.819447 Z-0.125000 I-2.649217 J4.284464
G02 X144.463365 Y0.604816 Z-0.125000 I-1.636441 J6.131160
G02 X143.572102 Y0.683979 Z-0.125000 I0.000000 J5.056807
G02 X142.078354 Y1.031860 Z-0.125000 I2.618636 J14.624915
G02 X140.664988 Y1.562059 Z-0.125000 I2.038931 J7.584156
G02 X139.693344 Y2.199114 Z-0.125000 I2.045174 J4.178833
G01 X140.875104 Y5.843217 Z-0.125000
G03 X141.853176 Y5.290943 Z-0.125000 I4.367150 J6.591961
G03 X142.615517 Y5.017601 Z-0.125000 I1.761865 J3.714043
G03 X143.418287 Y4.845148 Z-0.125000 I1.678619 J5.859305
G03 X144.184038 Y4.789842 Z-0.125000 I0.765751 J5.273541
G03 X145.043678 Y4.947113 Z-0.125000 I0.000000 J2.428021
G03 X145.688100 Y5.359236 Z-0.125000 I-0.658619 J1.739751
G03 X146.130915 Y5.970929 Z-0.125000 I-1.200417 J1.335130
G03 X146.289722 Y6.725775 Z-0.125000 I-1.714575 J0.754846
G01 X146.289722 Y7.209756 Z-0.125000
G02 X145.475584 Y6.926098 Z-0.125000 I-1.814393 J3.897390
G02 X144.742688 Y6.839651 Z-0.125000 I-0.732896 J3.063490
G02 X142.566585 Y7.324141 Z-0.125000 I-0.000000 J5.129260
G02 X140.853619 Y8.661704 Z-0.125000 I2.068032 J4.414097
G02 X139.845857 Y10.643066 Z-0.125000 I4.251902 J3.409572
G02 X139.392530 Y14.042451 Z-0.125000 I12.518902 J3.399386
G02 X139.850679 Y17.499102 Z-0.125000 I13.268970 J0.000000
G02 X140.875104 Y19.537074 Z-0.125000 I5.481991 J-1.479166
G02 X142.627837 Y20.931776 Z-0.125000 I3.841762 J-3.029285
G02 X144.914583 Y21.444536 Z-0.125000 I2.286746 J-4.842698
G02 X146.320562 Y21.121281 Z-0.125000 I0.000000 J-3.219235
G02 X147.729324 Y20.077997 Z-0.125000 I-2.075963 J-4.275983
G01 X148.245002 Y20.932084 Z-0.125000
G01 X150.200282 Y20.932084 Z-0.125000
G00 Z5.000000

(End cutting path id: path941)


(Start cutting path id: path941)
(Change tool to Default tool)

G00 Z5.000000
G00 X145.344314 Y10.825388

G01 Z-0.125000 F100.0(Penetrate)
G03 X145.780840 Y10.919405 Z-0.125000 I0.000000 J1.060420 F400.000000
G03 X146.289722 Y11.252432 Z-0.125000 I-0.809736 J1.792631
G01 X146.289722 Y17.088693 Z-0.125000
G03 X145.645650 Y17.382460 Z-0.125000 I-1.676168 J-2.821998
G03 X145.172422 Y17.458799 Z-0.125000 I-0.473229 J-1.428615
G03 X144.542768 Y17.253191 Z-0.125000 I0.000000 J-1.066931
G03 X143.926199 Y16.547770 Z-0.125000 I1.259734 J-1.723227
G03 X143.582911 Y15.598452 Z-0.125000 I2.967971 J-1.609992
G03 X143.432009 Y14.070918 Z-0.125000 I7.655906 J-1.527534
G03 X143.586081 Y12.546457 Z-0.125000 I7.618928 J-0.000000
G03 X143.926199 Y11.651008 Z-0.125000 I2.917329 J0.595772
G03 X144.542991 Y11.041660 Z-0.125000 I1.491217 J0.892596
G03 X145.344314 Y10.825388 Z-0.125000 I0.801323 J1.376380
G01 X145.344314 Y10.825388 Z-0.125000
G00 Z5.000000

(End cutting path id: path941)


(Start cutting path id: path939)
(Change tool to Default tool)

G00 Z5.000000
G00 X130.854302 Y16.433895

G01 Z-0.125000 F100.0(Penetrate)
G02 X131.383360 Y16.719223 Z-0.125000 I3.050829 J-5.023712 F400.000000
G02 X131.993089 Y16.974814 Z-0.125000 I3.050678 J-6.422539
G02 X132.624825 Y17.187385 Z-0.125000 I1.935181 J-4.706118
G02 X132.959986 Y17.231040 Z-0.125000 I0.335161 J-1.264766
G02 X133.479792 Y17.094745 Z-0.125000 I0.000000 J-1.059377
G02 X133.819450 Y16.747059 Z-0.125000 I-0.425266 J-0.755197
G02 X134.001786 Y16.271658 Z-0.125000 I-1.494090 J-0.845713
G02 X134.077289 Y15.579808 Z-0.125000 I-3.132043 J-0.691850
G01 X134.077289 Y7.152818 Z-0.125000
G01 X137.987845 Y7.152818 Z-0.125000
G01 X137.987845 Y16.063789 Z-0.125000
G03 X137.706724 Y18.400246 Z-0.125000 I-9.849935 J-0.000000
G03 X137.042437 Y19.935651 Z-0.125000 I-4.835750 J-1.180765
G03 X135.873021 Y21.007227 Z-0.125000 I-2.593117 J-1.655997
G03 X134.206208 Y21.416066 Z-0.125000 I-1.666812 J-3.193336
G03 X132.368728 Y21.028357 Z-0.125000 I-0.000000 J-4.548063
G03 X129.951865 Y19.537074 Z-0.125000 I4.202161 J-9.514380
G01 X129.264293 Y20.960555 Z-0.125000
G01 X126.943742 Y20.960555 Z-0.125000
G01 X126.943742 Y7.152818 Z-0.125000
G01 X130.854302 Y7.152818 Z-0.125000
G01 X130.854302 Y16.433895 Z-0.125000
G00 Z5.000000

(End cutting path id: path939)


(Start cutting path id: path937)
(Change tool to Default tool)

G00 Z5.000000
G00 X122.834433 Y22.839546

G01 Z-0.125000 F100.0(Penetrate)
G03 X123.615609 Y23.039853 Z-0.125000 I-0.000000 J1.623409 F400.000000
G03 X124.338495 Y23.665162 Z-0.125000 I-1.097339 J1.999072
G03 X124.810523 Y24.550167 Z-0.125000 I-2.297565 J1.793817
G03 X124.983092 Y25.629562 Z-0.125000 I-3.289440 J1.079396
G03 X124.808489 Y26.736725 Z-0.125000 I-3.597565 J0.000000
G03 X124.338495 Y27.622433 Z-0.125000 I-2.739284 J-0.886026
G03 X123.611117 Y28.271382 Z-0.125000 I-1.871022 J-1.365028
G03 X122.834433 Y28.476520 Z-0.125000 I-0.776684 J-1.367753
G03 X122.077822 Y28.274172 Z-0.125000 I-0.000000 J-1.515719
G03 X121.351859 Y27.622433 Z-0.125000 I1.173989 J-2.037879
G03 X120.898304 Y26.740011 Z-0.125000 I2.317021 J-1.748697
G03 X120.728749 Y25.629562 Z-0.125000 I3.551510 J-1.110449
G03 X120.896342 Y24.546923 Z-0.125000 I3.580691 J-0.000000
G03 X121.351859 Y23.665162 Z-0.125000 I2.801128 J0.888521
G03 X122.073406 Y23.037159 Z-0.125000 I1.847944 J1.394689
G03 X122.834433 Y22.839546 Z-0.125000 I0.761027 J1.366591
G01 X122.834433 Y22.839546 Z-0.125000
G00 Z5.000000

(End cutting path id: path937)


(Start cutting path id: path937)
(Change tool to Default tool)

G00 Z5.000000
G00 X124.811201 Y7.152818

G01 Z-0.125000 F100.0(Penetrate)
G01 X124.811201 Y20.960555 Z-0.125000 F400.000000
G01 X120.900641 Y20.960555 Z-0.125000
G01 X120.900641 Y7.152818 Z-0.125000
G01 X124.811201 Y7.152818 Z-0.125000
G00 Z5.000000

(End cutting path id: path937)


(Start cutting path id: path935)
(Change tool to Default tool)

G00 Z5.000000
G00 X115.074761 Y21.416066

G01 Z-0.125000 F100.0(Penetrate)
G02 X116.741573 Y21.007227 Z-0.125000 I-0.000000 J-3.602174 F400.000000
G02 X117.910989 Y19.935651 Z-0.125000 I-1.423700 J-2.727574
G02 X118.575276 Y18.400246 Z-0.125000 I-4.171463 J-2.716170
G02 X118.856398 Y16.063789 Z-0.125000 I-9.568813 J-2.336457
G01 X118.856398 Y7.152818 Z-0.125000
G01 X114.945841 Y7.152818 Z-0.125000
G01 X114.945841 Y15.579808 Z-0.125000
G03 X114.558435 Y16.843634 Z-0.125000 I-2.255180 J0.000000
G03 X113.828538 Y17.231040 Z-0.125000 I-0.729897 J-0.493884
G03 X113.493377 Y17.187385 Z-0.125000 I-0.000000 J-1.308421
G03 X112.861642 Y16.974814 Z-0.125000 I1.303445 J-4.918689
G03 X112.251913 Y16.719223 Z-0.125000 I2.440948 J-6.678130
G03 X111.722854 Y16.433895 Z-0.125000 I2.521771 J-5.309041
G01 X111.722854 Y7.152818 Z-0.125000
G01 X107.812294 Y7.152818 Z-0.125000
G01 X107.812294 Y26.939163 Z-0.125000
G01 X111.722854 Y27.252327 Z-0.125000
G01 X111.722854 Y20.220344 Z-0.125000
G02 X113.604356 Y21.161649 Z-0.125000 I4.804135 J-7.251564
G02 X115.074761 Y21.416066 Z-0.125000 I1.470404 J-4.121911
G01 X115.074761 Y21.416066 Z-0.125000
G00 Z5.000000

(End cutting path id: path935)


(Start cutting path id: path933)
(Change tool to Default tool)

G00 Z5.000000
G00 X102.481949 Y20.391161

G01 Z-0.125000 F100.0(Penetrate)
G01 X102.481949 Y24.832413 Z-0.125000 F400.000000
G01 X98.571389 Y24.120677 Z-0.125000
G01 X98.571389 Y20.391161 Z-0.125000
G01 X96.959895 Y20.391161 Z-0.125000
G01 X96.959895 Y16.320015 Z-0.125000
G01 X98.571389 Y16.320015 Z-0.125000
G01 X98.571389 Y12.334278 Z-0.125000
G03 X98.758776 Y10.615885 Z-0.125000 I7.972763 J-0.000000
G03 X99.237474 Y9.316503 Z-0.125000 I4.996281 J1.102782
G03 X100.055609 Y8.222987 Z-0.125000 I4.572310 J2.568053
G03 X101.042347 Y7.465982 Z-0.125000 I3.113258 J3.036462
G03 X102.201353 Y6.999331 Z-0.125000 I2.390194 J4.263830
G03 X103.448845 Y6.839651 Z-0.125000 I1.247491 J4.793124
G03 X104.162489 Y6.921613 Z-0.125000 I-0.000000 J3.147841
G03 X105.038851 Y7.209756 Z-0.125000 I-1.176996 J5.056479
G03 X105.873681 Y7.671254 Z-0.125000 I-2.456598 J5.429720
G03 X106.328046 Y8.063843 Z-0.125000 I-1.304289 J1.968748
G01 X105.210742 Y11.594066 Z-0.125000
G02 X104.438126 Y11.180677 Z-0.125000 I-1.791391 J2.419374
G02 X103.706684 Y11.053147 Z-0.125000 I-0.731442 J2.033820
G02 X103.212171 Y11.177383 Z-0.125000 I-0.000000 J1.046309
G02 X102.804247 Y11.537129 Z-0.125000 I0.562689 J1.049195
G02 X102.578080 Y12.077298 Z-0.125000 I1.509883 J0.949617
G02 X102.481949 Y12.903668 Z-0.125000 I3.503789 J0.826370
G01 X102.481949 Y16.320015 Z-0.125000
G01 X105.576016 Y16.320015 Z-0.125000
G01 X105.210742 Y20.391161 Z-0.125000
G01 X102.481949 Y20.391161 Z-0.125000
G00 Z5.000000

(End cutting path id: path933)


(Start cutting path id: path931)
(Change tool to Default tool)

G00 Z5.000000
G00 X91.597921 Y13.792314

G01 Z-0.125000 F100.0(Penetrate)
G03 X91.451743 Y15.626032 Z-0.125000 I-11.574571 J-0.000000 F400.000000
G03 X91.056735 Y17.165180 Z-0.125000 I-8.527703 J-1.368294
G03 X90.373431 Y18.569412 Z-0.125000 I-6.100415 J-2.100119
G03 X89.493313 Y19.581956 Z-0.125000 I-3.997917 J-2.586268
G03 X88.360366 Y20.241804 Z-0.125000 I-2.314800 J-2.671920
G03 X86.947740 Y20.484928 Z-0.125000 I-1.412626 J-3.982340
G03 X85.533860 Y20.266576 Z-0.125000 I0.000000 J-4.686776
G03 X84.261861 Y19.635073 Z-0.125000 I1.393186 J-4.403023
G03 X83.247325 Y18.674078 Z-0.125000 I2.668912 J-3.833638
G03 X82.397780 Y17.244854 Z-0.125000 I5.214346 J-4.066557
G03 X81.906056 Y15.638451 Z-0.125000 I6.819212 J-2.965840
G03 X81.716288 Y13.579849 Z-0.125000 I11.070986 J-2.058602
G03 X81.924340 Y11.502689 Z-0.125000 I10.473088 J-0.000000
G03 X82.457912 Y9.914848 Z-0.125000 I6.609420 J1.337435
G03 X83.370944 Y8.559523 Z-0.125000 I5.361470 J2.626624
G03 X84.502388 Y7.630859 Z-0.125000 I3.569000 J3.194733
G03 X85.880988 Y7.067075 Z-0.125000 I2.703902 J4.644339
G03 X87.529015 Y6.860679 Z-0.125000 I1.648027 J6.476354
G03 X88.694391 Y6.960641 Z-0.125000 I-0.000000 J6.843044
G03 X89.834061 Y7.259049 Z-0.125000 I-1.182243 J6.840679
G03 X90.919688 Y7.749505 Z-0.125000 I-2.210723 J6.340206
G03 X91.577878 Y8.241695 Z-0.125000 I-1.568962 J2.784302
G01 X90.555639 Y11.508326 Z-0.125000
G02 X89.207617 Y10.842978 Z-0.125000 I-3.019985 J4.420363
G02 X87.889805 Y10.631915 Z-0.125000 I-1.317811 J4.008467
G02 X87.033323 Y10.761048 Z-0.125000 I-0.000000 J2.904886
G02 X86.426601 Y11.083399 Z-0.125000 I0.538868 J1.746406
G02 X85.987733 Y11.623200 Z-0.125000 I1.405053 J1.590635
G02 X85.684977 Y12.384741 Z-0.125000 I2.558713 J1.458188
G01 X91.597921 Y12.384741 Z-0.125000
G01 X91.597921 Y13.792314 Z-0.125000
G00 Z5.000000

(End cutting path id: path931)


(Start cutting path id: path931)
(Change tool to Default tool)

G00 Z5.000000
G00 X85.584756 Y14.774961

G01 Z-0.125000 F100.0(Penetrate)
G02 X85.670215 Y15.461046 Z-0.125000 I2.283889 J0.063883 F400.000000
G02 X85.945547 Y16.049742 Z-0.125000 I1.942506 J-0.549771
G02 X86.410158 Y16.483164 Z-0.125000 I1.318698 J-0.947859
G02 X86.847523 Y16.607461 Z-0.125000 I0.437365 J-0.707333
G02 X87.379220 Y16.455965 Z-0.125000 I0.000000 J-1.008784
G02 X87.789585 Y16.023186 Z-0.125000 I-0.618750 J-0.997648
G02 X88.028991 Y15.418066 Z-0.125000 I-2.283278 J-1.253263
G02 X88.110286 Y14.774961 Z-0.125000 I-2.503075 J-0.643105
G01 X85.584756 Y14.774961 Z-0.125000
G00 Z5.000000

(End cutting path id: path931)


(Start cutting path id: path929)
(Change tool to Default tool)

G00 Z5.000000
G00 X80.098058 Y7.152818

G01 Z-0.125000 F100.0(Penetrate)
G01 X80.098058 Y25.902759 Z-0.125000 F400.000000
G01 X76.450074 Y25.610620 Z-0.125000
G01 X76.450074 Y7.152818 Z-0.125000
G01 X80.098058 Y7.152818 Z-0.125000
G00 Z5.000000

(End cutting path id: path929)


(Start cutting path id: path927)
(Change tool to Default tool)

G00 Z5.000000
G00 X69.835906 Y20.484928

G01 Z-0.125000 F100.0(Penetrate)
G02 X71.863125 Y20.031317 Z-0.125000 I0.000000 J-4.756700 F400.000000
G02 X73.443804 Y18.785219 Z-0.125000 I-1.903166 J-4.039768
G02 X74.398440 Y16.933238 Z-0.125000 I-3.930160 J-3.197903
G02 X74.826831 Y13.765758 Z-0.125000 I-11.495831 J-3.167480
G02 X74.395784 Y10.542393 Z-0.125000 I-12.267656 J-0.000000
G02 X73.423761 Y8.613505 Z-0.125000 I-5.221590 J1.421952
G02 X71.810674 Y7.335252 Z-0.125000 I-3.503642 J2.764467
G02 X69.675557 Y6.860679 Z-0.125000 I-2.135118 J4.565687
G02 X68.442309 Y7.126683 Z-0.125000 I-0.000000 J2.991791
G02 X67.210158 Y7.976116 Z-0.125000 I1.735390 J3.835650
G01 X66.588798 Y7.152818 Z-0.125000
G01 X64.744760 Y7.152818 Z-0.125000
G01 X64.744760 Y25.610620 Z-0.125000
G01 X68.392747 Y25.902759 Z-0.125000
G01 X68.392747 Y20.139675 Z-0.125000
G02 X69.152222 Y20.404285 Z-0.125000 I1.692575 J-3.635749
G02 X69.835906 Y20.484928 Z-0.125000 I0.683684 J-2.857799
G01 X69.835906 Y20.484928 Z-0.125000
G00 Z5.000000

(End cutting path id: path927)


(Start cutting path id: path927)
(Change tool to Default tool)

G00 Z5.000000
G00 X69.435030 Y10.578797

G01 Z-0.125000 F100.0(Penetrate)
G03 X70.022405 Y10.770599 Z-0.125000 I-0.000000 J0.995293 F400.000000
G03 X70.597575 Y11.428652 Z-0.125000 I-1.175151 J1.607530
G03 X70.917814 Y12.314232 Z-0.125000 I-2.768720 J1.501900
G03 X71.058583 Y13.739197 Z-0.125000 I-7.141841 J1.424965
G03 X70.913341 Y15.159740 Z-0.125000 I-7.019414 J-0.000000
G03 X70.597575 Y15.970068 Z-0.125000 I-2.549834 J-0.526921
G03 X70.017518 Y16.560388 Z-0.125000 I-1.436022 J-0.830912
G03 X69.274677 Y16.766809 Z-0.125000 I-0.742841 J-1.233402
G03 X68.884994 Y16.682881 Z-0.125000 I-0.000000 J-0.946626
G03 X68.392747 Y16.368439 Z-0.125000 I0.836721 J-1.852369
G01 X68.392747 Y10.924050 Z-0.125000
G03 X68.993573 Y10.650010 Z-0.125000 I1.563615 J2.632516
G03 X69.435030 Y10.578797 Z-0.125000 I0.441457 J1.332710
G01 X69.435030 Y10.578797 Z-0.125000
G00 Z5.000000

(End cutting path id: path927)


(Start cutting path id: path925)
(Change tool to Default tool)

G00 Z5.000000
G00 X60.710933 Y21.786270

G01 Z-0.125000 F100.0(Penetrate)
G03 X61.439655 Y21.973127 Z-0.125000 I-0.000000 J1.514400 F400.000000
G03 X62.114003 Y22.556451 Z-0.125000 I-1.023662 J1.864848
G03 X62.554338 Y23.382036 Z-0.125000 I-2.143317 J1.673383
G03 X62.715320 Y24.388955 Z-0.125000 I-3.068571 J1.006920
G03 X62.552440 Y25.421778 Z-0.125000 I-3.355999 J-0.000000
G03 X62.114003 Y26.248013 Z-0.125000 I-2.555334 J-0.826530
G03 X61.435464 Y26.853390 Z-0.125000 I-1.745399 J-1.273375
G03 X60.710933 Y27.044754 Z-0.125000 I-0.724531 J-1.275908
G03 X60.005122 Y26.855992 Z-0.125000 I-0.000000 J-1.413950
G03 X59.327903 Y26.248013 Z-0.125000 I1.095161 J-1.901045
G03 X58.904802 Y25.424844 Z-0.125000 I2.161424 J-1.631273
G03 X58.746632 Y24.388955 Z-0.125000 I3.313041 J-1.035889
G03 X58.902971 Y23.379010 Z-0.125000 I3.340272 J-0.000000
G03 X59.327903 Y22.556451 Z-0.125000 I2.613072 J0.828868
G03 X60.001002 Y21.970615 Z-0.125000 I1.723862 J1.301042
G03 X60.710933 Y21.786270 Z-0.125000 I0.709931 J1.274838
G01 X60.710933 Y21.786270 Z-0.125000
G00 Z5.000000

(End cutting path id: path925)


(Start cutting path id: path925)
(Change tool to Default tool)

G00 Z5.000000
G00 X62.554968 Y7.152818

G01 Z-0.125000 F100.0(Penetrate)
G01 X62.554968 Y20.033444 Z-0.125000 F400.000000
G01 X58.906984 Y20.033444 Z-0.125000
G01 X58.906984 Y7.152818 Z-0.125000
G01 X62.554968 Y7.152818 Z-0.125000
G00 Z5.000000

(End cutting path id: path925)


(Start cutting path id: path923)
(Change tool to Default tool)

G00 Z5.000000
G00 X56.682426 Y25.902759

G01 Z-0.125000 F100.0(Penetrate)
G01 X56.682426 Y7.152818 Z-0.125000 F400.000000
G01 X54.838388 Y7.152818 Z-0.125000
G01 X54.297206 Y8.082347 Z-0.125000
G02 X53.662883 Y7.572607 Z-0.125000 I-3.907500 J4.212961
G02 X52.994353 Y7.179375 Z-0.125000 I-2.973457 J4.290249
G02 X52.295313 Y6.939631 Z-0.125000 I-1.465131 J3.132998
G02 X51.591281 Y6.860679 Z-0.125000 I-0.704032 J3.099527
G02 X49.561289 Y7.312639 Z-0.125000 I0.000000 J4.784863
G02 X47.963340 Y8.560392 Z-0.125000 I1.929173 J4.117711
G02 X47.023244 Y10.408716 Z-0.125000 I3.966416 J3.180639
G02 X46.600356 Y13.579849 Z-0.125000 I11.678322 J3.171133
G02 X47.027742 Y16.804408 Z-0.125000 I12.378063 J-0.000000
G02 X47.983383 Y18.705545 Z-0.125000 I5.113919 J-1.379849
G02 X49.618429 Y20.006598 Z-0.125000 I3.583806 J-2.825890
G02 X51.751633 Y20.484928 Z-0.125000 I2.133204 J-4.517546
G02 X52.418708 Y20.416600 Z-0.125000 I-0.000000 J-3.290449
G02 X53.034439 Y20.219349 Z-0.125000 I-0.620160 J-2.995512
G01 X53.034439 Y25.610620 Z-0.125000
G01 X56.682426 Y25.902759 Z-0.125000
G00 Z5.000000

(End cutting path id: path923)


(Start cutting path id: path923)
(Change tool to Default tool)

G00 Z5.000000
G00 X50.368603 Y13.606409

G01 Z-0.125000 F100.0(Penetrate)
G03 X50.512330 Y12.184304 Z-0.125000 I7.107351 J-0.000000 F400.000000
G03 X50.829614 Y11.348978 Z-0.125000 I2.721444 J0.555771
G03 X51.404991 Y10.780547 Z-0.125000 I1.391084 J0.832663
G03 X52.152509 Y10.578797 Z-0.125000 I0.747518 J1.283970
G03 X52.559725 Y10.666501 Z-0.125000 I0.000000 J0.989215
G03 X53.034439 Y10.977168 Z-0.125000 I-0.755373 J1.672277
G01 X53.034439 Y16.421556 Z-0.125000
G03 X52.433614 Y16.695596 Z-0.125000 I-1.563615 J-2.632516
G03 X51.992157 Y16.766809 Z-0.125000 I-0.441457 J-1.332710
G03 X51.404782 Y16.575008 Z-0.125000 I-0.000000 J-0.995290
G03 X50.829614 Y15.916955 Z-0.125000 I1.175147 J-1.607520
G03 X50.509374 Y15.031378 Z-0.125000 I2.768676 J-1.501892
G03 X50.368603 Y13.606409 Z-0.125000 I7.141813 J-1.424968
G01 X50.368603 Y13.606409 Z-0.125000
G00 Z5.000000

(End cutting path id: path923)


(Start cutting path id: path921)
(Change tool to Default tool)

G00 Z5.000000
G00 X45.794528 Y13.792314

G01 Z-0.125000 F100.0(Penetrate)
G03 X45.648351 Y15.626032 Z-0.125000 I-11.574633 J0.000000 F400.000000
G03 X45.253345 Y17.165180 Z-0.125000 I-8.527739 J-1.368292
G03 X44.570039 Y18.569412 Z-0.125000 I-6.100460 J-2.100146
G03 X43.689923 Y19.581956 Z-0.125000 I-3.997931 J-2.586277
G03 X42.556974 Y20.241805 Z-0.125000 I-2.314809 J-2.671938
G03 X41.144351 Y20.484928 Z-0.125000 I-1.412623 J-3.982333
G03 X39.730468 Y20.266576 Z-0.125000 I-0.000000 J-4.686790
G03 X38.458468 Y19.635073 Z-0.125000 I1.393183 J-4.403019
G03 X37.443932 Y18.674078 Z-0.125000 I2.668912 J-3.833638
G03 X36.594388 Y17.244854 Z-0.125000 I5.214346 J-4.066557
G03 X36.102666 Y15.638452 Z-0.125000 I6.819236 J-2.965838
G03 X35.912899 Y13.579849 Z-0.125000 I11.071034 J-2.058603
G03 X36.120949 Y11.502688 Z-0.125000 I10.473129 J0.000000
G03 X36.654519 Y9.914848 Z-0.125000 I6.609437 J1.337434
G03 X37.567552 Y8.559523 Z-0.125000 I5.361470 J2.626624
G03 X38.698995 Y7.630859 Z-0.125000 I3.569000 J3.194733
G03 X40.077598 Y7.067075 Z-0.125000 I2.703912 J4.644365
G03 X41.725622 Y6.860679 Z-0.125000 I1.648024 J6.476343
G03 X42.890998 Y6.960641 Z-0.125000 I-0.000000 J6.843044
G03 X44.030668 Y7.259049 Z-0.125000 I-1.182243 J6.840679
G03 X45.116296 Y7.749505 Z-0.125000 I-2.210723 J6.340206
G03 X45.774485 Y8.241695 Z-0.125000 I-1.568962 J2.784302
G01 X44.752249 Y11.508326 Z-0.125000
G02 X43.404224 Y10.842978 Z-0.125000 I-3.019993 J4.420385
G02 X42.086412 Y10.631915 Z-0.125000 I-1.317812 J4.008471
G02 X41.229931 Y10.761048 Z-0.125000 I0.000000 J2.904886
G02 X40.623208 Y11.083399 Z-0.125000 I0.538868 J1.746406
G02 X40.184343 Y11.623199 Z-0.125000 I1.405065 J1.590640
G02 X39.881584 Y12.384741 Z-0.125000 I2.558747 J1.458207
G01 X45.794528 Y12.384741 Z-0.125000
G01 X45.794528 Y13.792314 Z-0.125000
G00 Z5.000000

(End cutting path id: path921)


(Start cutting path id: path921)
(Change tool to Default tool)

G00 Z5.000000
G00 X39.781367 Y14.774961

G01 Z-0.125000 F100.0(Penetrate)
G02 X39.866826 Y15.461046 Z-0.125000 I2.283889 J0.063883 F400.000000
G02 X40.142157 Y16.049742 Z-0.125000 I1.942506 J-0.549771
G02 X40.606766 Y16.483164 Z-0.125000 I1.318691 J-0.947847
G02 X41.044130 Y16.607461 Z-0.125000 I0.437365 J-0.707330
G02 X41.575828 Y16.455965 Z-0.125000 I0.000000 J-1.008784
G02 X41.986192 Y16.023186 Z-0.125000 I-0.618750 J-0.997648
G02 X42.225598 Y15.418066 Z-0.125000 I-2.283278 J-1.253263
G02 X42.306894 Y14.774961 Z-0.125000 I-2.503075 J-0.643105
G01 X39.781367 Y14.774961 Z-0.125000
G00 Z5.000000

(End cutting path id: path921)


(Start cutting path id: path919)
(Change tool to Default tool)

G00 Z5.000000
G00 X32.254264 Y14.721843

G01 Z-0.125000 F100.0(Penetrate)
G02 X32.924196 Y15.290556 Z-0.125000 I3.342349 J-3.258277 F400.000000
G02 X33.737512 Y15.757607 Z-0.125000 I3.044006 J-4.359118
G02 X34.618534 Y16.068972 Z-0.125000 I2.105256 J-4.554788
G02 X35.320977 Y16.155977 Z-0.125000 I0.702443 J-2.792110
G01 X34.579353 Y20.033444 Z-0.125000
G03 X33.843452 Y19.929811 Z-0.125000 I-0.000000 J-2.664639
G03 X32.915713 Y19.555399 Z-0.125000 I1.333628 J-4.641151
G03 X32.049126 Y19.026984 Z-0.125000 I3.949308 J-7.451565
G03 X31.312202 Y18.439962 Z-0.125000 I4.149533 J-5.965213
G01 X30.430272 Y20.006883 Z-0.125000
G01 X28.606277 Y20.006883 Z-0.125000
G01 X28.606277 Y7.152818 Z-0.125000
G01 X32.254264 Y7.152818 Z-0.125000
G01 X32.254264 Y14.721843 Z-0.125000
G00 Z5.000000

(End cutting path id: path919)


(Start cutting path id: path917)
(Change tool to Default tool)

G00 Z5.000000
G00 X27.483193 Y19.183585

G01 Z-0.125000 F100.0(Penetrate)
G03 X26.084849 Y20.121129 Z-0.125000 I-2.817257 J-2.690346 F400.000000
G03 X24.155910 Y20.484928 Z-0.125000 I-1.928939 J-4.931929
G03 X22.659931 Y20.267018 Z-0.125000 I-0.000000 J-5.243989
G03 X21.389855 Y19.661630 Z-0.125000 I1.295779 J-4.353461
G03 X20.358198 Y18.697113 Z-0.125000 I2.643527 J-3.861533
G03 X19.505730 Y17.271411 Z-0.125000 I5.084225 J-4.007713
G03 X19.029786 Y15.666940 Z-0.125000 I6.955025 J-2.935940
G03 X18.844282 Y13.579849 Z-0.125000 I11.648121 J-2.087091
G03 X19.276148 Y10.546009 Z-0.125000 I10.872219 J0.000000
G03 X20.287441 Y8.613505 Z-0.125000 I5.289036 J1.536930
G03 X21.971391 Y7.332501 Z-0.125000 I3.641878 J3.040123
G03 X24.155910 Y6.860679 Z-0.125000 I2.184519 J4.821208
G03 X26.084849 Y7.224477 Z-0.125000 I-0.000000 J5.295727
G03 X27.483193 Y8.162021 Z-0.125000 I-1.418914 J3.627890
G01 X26.460956 Y11.481769 Z-0.125000
G02 X25.882216 Y11.116868 Z-0.125000 I-3.619471 J5.099148
G02 X25.458762 Y10.924050 Z-0.125000 I-1.406338 J2.527122
G02 X25.012673 Y10.826046 Z-0.125000 I-0.864618 J2.871249
G02 X24.516699 Y10.791263 Z-0.125000 I-0.495974 J3.518687
G02 X23.824125 Y10.970211 Z-0.125000 I0.000000 J1.429695
G02 X23.173760 Y11.534887 Z-0.125000 I1.004092 J1.813330
G02 X22.780290 Y12.334711 Z-0.125000 I1.890181 J1.426560
G02 X22.612531 Y13.579849 Z-0.125000 I4.536937 J1.245138
G02 X22.776414 Y14.857207 Z-0.125000 I5.060022 J0.000000
G02 X23.173760 Y15.731050 Z-0.125000 I2.720357 J-0.709717
G02 X23.852167 Y16.366863 Z-0.125000 I1.883399 J-1.329735
G02 X24.516699 Y16.554348 Z-0.125000 I0.664533 J-1.083967
G02 X25.029955 Y16.511246 Z-0.125000 I-0.000000 J-3.077455
G02 X25.458762 Y16.394999 Z-0.125000 I-0.381889 J-2.257715
G02 X25.862116 Y16.226137 Z-0.125000 I-0.724795 J-2.297448
G02 X26.460956 Y15.863837 Z-0.125000 I-2.890273 J-5.453353
G01 X27.483193 Y19.183585 Z-0.125000
G00 Z5.000000

(End cutting path id: path917)


(Start cutting path id: path915)
(Change tool to Default tool)

G00 Z5.000000
G00 X10.879347 Y15.810724

G01 Z-0.125000 F100.0(Penetrate)
G02 X11.372881 Y16.076894 Z-0.125000 I2.846044 J-4.686512 F400.000000
G02 X11.941672 Y16.315325 Z-0.125000 I2.845937 J-5.991483
G02 X12.530991 Y16.513624 Z-0.125000 I1.805254 J-4.390153
G02 X12.843647 Y16.554348 Z-0.125000 I0.312656 J-1.179838
G02 X13.328549 Y16.427204 Z-0.125000 I-0.000000 J-0.988237
G02 X13.645402 Y16.102860 Z-0.125000 I-0.396717 J-0.704493
G02 X13.815495 Y15.659381 Z-0.125000 I-1.393755 J-0.788924
G02 X13.885928 Y15.013983 Z-0.125000 I-2.921753 J-0.645398
G01 X13.885928 Y7.152818 Z-0.125000
G01 X17.533914 Y7.152818 Z-0.125000
G01 X17.533914 Y15.465467 Z-0.125000
G03 X17.271668 Y17.645045 Z-0.125000 I-9.188560 J0.000000
G03 X16.651983 Y19.077355 Z-0.125000 I-4.511043 J-1.101482
G03 X15.561088 Y20.076983 Z-0.125000 I-2.419004 J-1.544800
G03 X14.006192 Y20.458371 Z-0.125000 I-1.554896 J-2.978915
G03 X12.292090 Y20.096695 Z-0.125000 I-0.000000 J-4.242685
G03 X10.037504 Y18.705545 Z-0.125000 I3.920017 J-8.875564
G01 X9.396099 Y20.033444 Z-0.125000
G01 X7.231361 Y20.033444 Z-0.125000
G01 X7.231361 Y7.152818 Z-0.125000
G01 X10.879347 Y7.152818 Z-0.125000
G01 X10.879347 Y15.810724 Z-0.125000
G00 Z5.000000

(End cutting path id: path915)


(Start cutting path id: path913)
(Change tool to Default tool)

G00 Z5.000000
G00 X3.397969 Y21.786270

G01 Z-0.125000 F100.0(Penetrate)
G03 X4.126692 Y21.973127 Z-0.125000 I0.000000 J1.514403 F400.000000
G03 X4.801041 Y22.556451 Z-0.125000 I-1.023662 J1.864851
G03 X5.241375 Y23.382035 Z-0.125000 I-2.143319 J1.673382
G03 X5.402357 Y24.388955 Z-0.125000 I-3.068576 J1.006920
G03 X5.239477 Y25.421778 Z-0.125000 I-3.356004 J-0.000000
G03 X4.801041 Y26.248013 Z-0.125000 I-2.555335 J-0.826529
G03 X4.122501 Y26.853390 Z-0.125000 I-1.745400 J-1.273378
G03 X3.397969 Y27.044754 Z-0.125000 I-0.724532 J-1.275911
G03 X2.692159 Y26.855992 Z-0.125000 I-0.000000 J-1.413947
G03 X2.014942 Y26.248013 Z-0.125000 I1.095160 J-1.901039
G03 X1.591839 Y25.424844 Z-0.125000 I2.161422 J-1.631273
G03 X1.433669 Y24.388955 Z-0.125000 I3.313036 J-1.035888
G03 X1.590009 Y23.379010 Z-0.125000 I3.340267 J-0.000000
G03 X2.014942 Y22.556451 Z-0.125000 I2.613071 J0.828869
G03 X2.688039 Y21.970615 Z-0.125000 I1.723859 J1.301035
G03 X3.397969 Y21.786270 Z-0.125000 I0.709930 J1.274834
G01 X3.397969 Y21.786270 Z-0.125000
G00 Z5.000000

(End cutting path id: path913)


(Start cutting path id: path913)
(Change tool to Default tool)

G00 Z5.000000
G00 X5.242006 Y7.152818

G01 Z-0.125000 F100.0(Penetrate)
G01 X5.242006 Y20.033444 Z-0.125000 F400.000000
G01 X1.594020 Y20.033444 Z-0.125000
G01 X1.594020 Y7.152818 Z-0.125000
G01 X5.242006 Y7.152818 Z-0.125000
G00 Z5.000000

(End cutting path id: path913)


(Start cutting path id: path911)
(Change tool to Default tool)

G00 Z5.000000
G00 X168.015211 Y48.700661

G01 Z-0.125000 F100.0(Penetrate)
G03 X167.869033 Y50.534378 Z-0.125000 I-11.574571 J0.000000 F400.000000
G03 X167.474025 Y52.073526 Z-0.125000 I-8.527703 J-1.368294
G03 X166.790721 Y53.477758 Z-0.125000 I-6.100415 J-2.100119
G03 X165.910603 Y54.490302 Z-0.125000 I-3.997917 J-2.586268
G03 X164.777654 Y55.150151 Z-0.125000 I-2.314809 J-2.671938
G03 X163.365030 Y55.393274 Z-0.125000 I-1.412623 J-3.982333
G03 X161.951148 Y55.174922 Z-0.125000 I0.000000 J-4.686785
G03 X160.679151 Y54.543419 Z-0.125000 I1.393179 J-4.403000
G03 X159.664615 Y53.582424 Z-0.125000 I2.668912 J-3.833638
G03 X158.815070 Y52.153200 Z-0.125000 I5.214346 J-4.066557
G03 X158.323346 Y50.546797 Z-0.125000 I6.819212 J-2.965840
G03 X158.133578 Y48.488195 Z-0.125000 I11.070986 J-2.058602
G03 X158.341630 Y46.411035 Z-0.125000 I10.473088 J-0.000000
G03 X158.875202 Y44.823194 Z-0.125000 I6.609420 J1.337435
G03 X159.788235 Y43.467869 Z-0.125000 I5.361470 J2.626624
G03 X160.919678 Y42.539205 Z-0.125000 I3.569000 J3.194733
G03 X162.298278 Y41.975421 Z-0.125000 I2.703904 J4.644343
G03 X163.946302 Y41.769025 Z-0.125000 I1.648024 J6.476336
G03 X165.111678 Y41.868987 Z-0.125000 I-0.000000 J6.843053
G03 X166.251351 Y42.167395 Z-0.125000 I-1.182249 J6.840719
G03 X167.336979 Y42.657851 Z-0.125000 I-2.210723 J6.340206
G03 X167.995168 Y43.150041 Z-0.125000 I-1.568962 J2.784302
G01 X166.972929 Y46.416672 Z-0.125000
G02 X165.624904 Y45.751324 Z-0.125000 I-3.019993 J4.420385
G02 X164.307092 Y45.540261 Z-0.125000 I-1.317812 J4.008471
G02 X163.450614 Y45.669394 Z-0.125000 I0.000000 J2.904871
G02 X162.843891 Y45.991745 Z-0.125000 I0.538870 J1.746409
G02 X162.405024 Y46.531546 Z-0.125000 I1.405053 J1.590635
G02 X162.102267 Y47.293087 Z-0.125000 I2.558713 J1.458188
G01 X168.015211 Y47.293087 Z-0.125000
G01 X168.015211 Y48.700661 Z-0.125000
G00 Z5.000000

(End cutting path id: path911)


(Start cutting path id: path911)
(Change tool to Default tool)

G00 Z5.000000
G00 X162.002046 Y49.683307

G01 Z-0.125000 F100.0(Penetrate)
G02 X162.087506 Y50.369393 Z-0.125000 I2.283889 J0.063883 F400.000000
G02 X162.362837 Y50.958088 Z-0.125000 I1.942506 J-0.549771
G02 X162.827446 Y51.391510 Z-0.125000 I1.318686 J-0.947843
G02 X163.264813 Y51.515807 Z-0.125000 I0.437367 J-0.707336
G02 X163.796508 Y51.364312 Z-0.125000 I-0.000000 J-1.008780
G02 X164.206875 Y50.931532 Z-0.125000 I-0.618757 J-0.997658
G02 X164.446281 Y50.326412 Z-0.125000 I-2.283278 J-1.253263
G02 X164.527576 Y49.683307 Z-0.125000 I-2.503075 J-0.643105
G01 X162.002046 Y49.683307 Z-0.125000
G00 Z5.000000

(End cutting path id: path911)


(Start cutting path id: path909)
(Change tool to Default tool)

G00 Z5.000000
G00 X151.230340 Y42.061164

G01 Z-0.125000 F100.0(Penetrate)
G01 X151.230340 Y46.204210 Z-0.125000 F400.000000
G01 X151.891789 Y46.868160 Z-0.125000
G01 X153.815999 Y42.061164 Z-0.125000
G01 X157.744601 Y42.061164 Z-0.125000
G01 X154.457405 Y49.417728 Z-0.125000
G01 X157.043063 Y51.993852 Z-0.125000
G01 X154.858281 Y55.313600 Z-0.125000
G01 X151.230340 Y51.250228 Z-0.125000
G01 X151.230340 Y60.811106 Z-0.125000
G01 X147.582353 Y60.518966 Z-0.125000
G01 X147.582353 Y42.061164 Z-0.125000
G01 X151.230340 Y42.061164 Z-0.125000
G00 Z5.000000

(End cutting path id: path909)


(Start cutting path id: path907)
(Change tool to Default tool)

G00 Z5.000000
G00 X138.086256 Y50.692509

G01 Z-0.125000 F100.0(Penetrate)
G02 X138.661948 Y50.977867 Z-0.125000 I2.820989 J-4.967799 F400.000000
G02 X139.328976 Y51.223671 Z-0.125000 I2.748340 J-6.430089
G02 X140.038358 Y51.415351 Z-0.125000 I1.839145 J-5.397946
G02 X140.511565 Y51.462694 Z-0.125000 I0.473207 J-2.341244
G02 X140.986778 Y51.362423 Z-0.125000 I-0.000000 J-1.176226
G02 X141.353410 Y51.090880 Z-0.125000 I-0.419353 J-0.949481
G02 X141.606438 Y50.679412 Z-0.125000 I-0.940387 J-0.861816
G02 X141.774332 Y49.975442 Z-0.125000 I-2.678893 J-1.010908
G01 X140.611786 Y49.975442 Z-0.125000
G03 X137.913419 Y48.865472 Z-0.125000 I-0.000000 J-3.834885
G03 X136.803449 Y46.204210 Z-0.125000 I2.635334 J-2.661262
G03 X137.075797 Y44.252091 Z-0.125000 I7.132313 J-0.000000
G03 X137.725468 Y42.964133 Z-0.125000 I3.674436 J1.045623
G03 X138.815959 Y42.111787 Z-0.125000 I2.212526 J1.706946
G03 X140.451434 Y41.769025 Z-0.125000 I1.635474 J3.730414
G03 X141.480622 Y42.108971 Z-0.125000 I-0.000000 J1.727909
G03 X142.636216 Y43.389064 Z-0.125000 I-2.605431 J3.513681
G01 X143.678498 Y42.061164 Z-0.125000
G01 X145.442362 Y42.061164 Z-0.125000
G01 X145.442362 Y50.028560 Z-0.125000
G03 X145.130212 Y52.423561 Z-0.125000 I-9.344014 J-0.000000
G03 X144.400079 Y53.959144 Z-0.125000 I-4.476257 J-1.186980
G03 X143.155745 Y54.996652 Z-0.125000 I-2.676692 J-1.945339
G03 X141.413541 Y55.393274 Z-0.125000 I-1.742204 J-3.628093
G03 X140.305063 Y55.303679 Z-0.125000 I-0.000000 J-6.901884
G03 X139.128538 Y55.021464 Z-0.125000 I1.312027 J-8.063220
G03 X137.993467 Y54.613739 Z-0.125000 I3.058084 J-10.297262
G03 X137.124151 Y54.171606 Z-0.125000 I2.741939 J-6.466851
G01 X138.086256 Y50.692509 Z-0.125000
G00 Z5.000000

(End cutting path id: path907)


(Start cutting path id: path907)
(Change tool to Default tool)

G00 Z5.000000
G00 X139.850119 Y46.283884

G01 Z-0.125000 F100.0(Penetrate)
G02 X139.912603 Y46.714436 Z-0.125000 I1.514619 J0.000000 F400.000000
G02 X140.070600 Y47.027508 Z-0.125000 I0.943473 J-0.279736
G02 X140.346466 Y47.244772 Z-0.125000 I0.635698 J-0.523395
G02 X140.671918 Y47.319644 Z-0.125000 I0.325451 J-0.669892
G01 X141.794375 Y47.319644 Z-0.125000
G01 X141.794375 Y46.097976 Z-0.125000
G02 X141.069281 Y45.526209 Z-0.125000 I-2.156801 J1.989523
G02 X140.511565 Y45.380913 Z-0.125000 I-0.557715 J0.997740
G02 X140.258649 Y45.440284 Z-0.125000 I-0.000000 J0.568385
G02 X140.030514 Y45.619935 Z-0.125000 I0.315978 J0.635930
G02 X139.901179 Y45.901215 Z-0.125000 I0.776394 J0.527367
G02 X139.850119 Y46.283884 Z-0.125000 I1.408424 J0.382669
G01 X139.850119 Y46.283884 Z-0.125000
G00 Z5.000000

(End cutting path id: path907)


(Start cutting path id: path905)
(Change tool to Default tool)

G00 Z5.000000
G00 X131.794979 Y55.366717

G01 Z-0.125000 F100.0(Penetrate)
G02 X134.040350 Y54.184585 Z-0.125000 I0.000000 J-2.723523 F400.000000
G02 X135.222482 Y50.373813 Z-0.125000 I-5.551219 J-3.810772
G01 X135.222482 Y42.061164 Z-0.125000
G01 X131.574498 Y42.061164 Z-0.125000
G01 X131.574498 Y49.922329 Z-0.125000
G03 X131.517099 Y50.653562 Z-0.125000 I-4.686481 J-0.000000
G03 X131.394103 Y51.064323 Z-0.125000 I-1.581923 J-0.249889
G03 X131.148155 Y51.335970 Z-0.125000 I-0.491501 J-0.197839
G03 X130.632436 Y51.462694 Z-0.125000 I-0.515719 J-0.986031
G03 X130.379226 Y51.426618 Z-0.125000 I0.000000 J-0.906659
G03 X129.810635 Y51.223671 Z-0.125000 I1.410808 J-4.850609
G03 X129.257020 Y50.969383 Z-0.125000 I4.270240 J-10.026596
G03 X128.788398 Y50.719070 Z-0.125000 I3.668567 J-7.431892
G01 X128.788398 Y50.373813 Z-0.125000
G01 X128.788398 Y42.061164 Z-0.125000
G01 X125.140411 Y42.061164 Z-0.125000
G01 X125.140411 Y49.922329 Z-0.125000
G03 X125.083014 Y50.653563 Z-0.125000 I-4.686556 J-0.000000
G03 X124.960019 Y51.064323 Z-0.125000 I-1.581941 J-0.249887
G03 X124.714071 Y51.335970 Z-0.125000 I-0.491499 J-0.197839
G03 X124.198350 Y51.462694 Z-0.125000 I-0.515722 J-0.986040
G03 X123.944755 Y51.427390 Z-0.125000 I-0.000000 J-0.928469
G03 X123.356508 Y51.223671 Z-0.125000 I1.499115 J-5.279915
G03 X122.802893 Y50.969384 Z-0.125000 I4.270325 J-10.026797
G03 X122.334269 Y50.719070 Z-0.125000 I3.668666 J-7.432114
G01 X122.334269 Y42.061164 Z-0.125000
G01 X118.686285 Y42.061164 Z-0.125000
G01 X118.686285 Y54.941790 Z-0.125000
G01 X120.851021 Y54.941790 Z-0.125000
G01 X121.492427 Y53.613891 Z-0.125000
G02 X123.742645 Y55.017200 Z-0.125000 I6.402421 J-7.760556
G02 X125.360895 Y55.366717 Z-0.125000 I1.618251 J-3.571460
G02 X127.018016 Y54.923537 Z-0.125000 I-0.000000 J-3.319708
G02 X128.126949 Y53.773239 Z-0.125000 I-1.437742 J-2.495717
G02 X130.226013 Y55.040639 Z-0.125000 I5.772457 J-7.188389
G02 X131.794979 Y55.366717 Z-0.125000 I1.568966 J-3.611606
G01 X131.794979 Y55.366717 Z-0.125000
G00 Z5.000000

(End cutting path id: path905)


(Start cutting path id: path903)
(Change tool to Default tool)

G00 Z5.000000
G00 X112.862603 Y48.435082

G01 Z-0.125000 F100.0(Penetrate)
G02 X112.654333 Y46.385273 Z-0.125000 I-10.191333 J0.000000 F400.000000
G02 X112.120979 Y44.823194 Z-0.125000 I-6.407273 J1.315596
G02 X111.226897 Y43.466094 Z-0.125000 I-5.342108 J2.546408
G02 X110.116592 Y42.539205 Z-0.125000 I-3.523082 J3.091793
G02 X108.796837 Y41.971906 Z-0.125000 I-2.648148 J4.341830
G02 X107.270361 Y41.769025 Z-0.125000 I-1.526477 J5.641153
G02 X105.037475 Y42.235784 Z-0.125000 I-0.000000 J5.574232
G02 X103.321715 Y43.495295 Z-0.125000 I1.943910 J4.446473
G02 X102.290176 Y45.413592 Z-0.125000 I4.008552 J3.392043
G02 X101.838471 Y48.567869 Z-0.125000 I10.787370 J3.154278
G02 X102.040102 Y50.621066 Z-0.125000 I10.554570 J0.000000
G02 X102.560048 Y52.206317 Z-0.125000 I6.770243 J-1.342676
G02 X103.469964 Y53.625226 Z-0.125000 I5.960320 J-2.821019
G02 X104.544393 Y54.569976 Z-0.125000 I3.638515 J-3.054614
G02 X105.870356 Y55.180620 Z-0.125000 I2.736583 J-4.197335
G02 X107.350535 Y55.393274 Z-0.125000 I1.480179 J-5.045068
G02 X108.911690 Y55.180334 Z-0.125000 I-0.000000 J-5.829219
G02 X110.216810 Y54.596537 Z-0.125000 I-1.285471 J-4.624502
G02 X111.283967 Y53.648644 Z-0.125000 I-2.476551 J-3.862812
G02 X112.161068 Y52.232874 Z-0.125000 I-4.824569 J-3.968506
G02 X112.662207 Y50.623140 Z-0.125000 I-6.472800 J-2.897973
G02 X112.862603 Y48.435082 Z-0.125000 I-11.845158 J-2.188058
G01 X112.862603 Y48.435082 Z-0.125000
G00 Z5.000000

(End cutting path id: path903)


(Start cutting path id: path903)
(Change tool to Default tool)

G00 Z5.000000
G00 X107.310449 Y45.699609

G01 Z-0.125000 F100.0(Penetrate)
G03 X108.072394 Y45.886500 Z-0.125000 I-0.000000 J1.646650 F400.000000
G03 X108.633345 Y46.390115 Z-0.125000 I-0.703521 J1.347830
G03 X108.948495 Y47.124837 Z-0.125000 I-1.822172 J1.216550
G03 X109.094353 Y48.435082 Z-0.125000 I-5.812057 J1.310244
G03 X108.958939 Y49.728618 Z-0.125000 I-6.245945 J0.000000
G03 X108.633345 Y50.612835 Z-0.125000 I-3.207220 J-0.678935
G03 X108.065541 Y51.253985 Z-0.125000 I-1.559712 J-0.809286
G03 X107.390624 Y51.462694 Z-0.125000 I-0.674917 J-0.986909
G03 X106.658356 Y51.265059 Z-0.125000 I-0.000000 J-1.455403
G03 X106.067729 Y50.692509 Z-0.125000 I0.861312 J-1.479420
G03 X105.747793 Y49.883333 Z-0.125000 I2.302451 J-1.378190
G03 X105.606718 Y48.567869 Z-0.125000 I6.062519 J-1.315464
G03 X105.741042 Y47.275702 Z-0.125000 I6.282360 J0.000000
G03 X106.047683 Y46.469789 Z-0.125000 I2.708485 J0.569257
G03 X106.603738 Y45.898121 Z-0.125000 I1.390183 J0.795946
G03 X107.310449 Y45.699609 Z-0.125000 I0.706712 J1.158705
G01 X107.310449 Y45.699609 Z-0.125000
G00 Z5.000000

(End cutting path id: path903)


(Start cutting path id: path901)
(Change tool to Default tool)

G00 Z5.000000
G00 X97.667775 Y54.410628

G01 Z-0.125000 F100.0(Penetrate)
G01 X97.667775 Y58.553678 Z-0.125000 F400.000000
G01 X94.019789 Y57.889724 Z-0.125000
G01 X94.019789 Y54.410628 Z-0.125000
G01 X92.516498 Y54.410628 Z-0.125000
G01 X92.516498 Y50.612835 Z-0.125000
G01 X94.019789 Y50.612835 Z-0.125000
G01 X94.019789 Y46.894717 Z-0.125000
G03 X94.194593 Y45.291707 Z-0.125000 I7.437432 J0.000000
G03 X94.641149 Y44.079570 Z-0.125000 I4.660819 J1.028738
G03 X95.404354 Y43.059475 Z-0.125000 I4.265338 J2.395646
G03 X96.324834 Y42.353300 Z-0.125000 I2.904210 J2.832569
G03 X97.406020 Y41.917983 Z-0.125000 I2.229705 J3.977545
G03 X98.569749 Y41.769025 Z-0.125000 I1.163729 J4.471299
G03 X99.235478 Y41.845483 Z-0.125000 I-0.000000 J2.936508
G03 X100.052996 Y42.114278 Z-0.125000 I-1.097961 J4.716968
G03 X100.831776 Y42.544792 Z-0.125000 I-2.291694 J5.065217
G03 X101.255631 Y42.911019 Z-0.125000 I-1.216711 J1.836555
G01 X100.213348 Y46.204210 Z-0.125000
G02 X99.492607 Y45.818576 Z-0.125000 I-1.671115 J2.256933
G02 X98.810276 Y45.699609 Z-0.125000 I-0.682331 J1.897260
G02 X98.348969 Y45.815502 Z-0.125000 I0.000000 J0.976050
G02 X97.968434 Y46.151093 Z-0.125000 I0.524911 J0.978754
G02 X97.757452 Y46.654994 Z-0.125000 I1.408505 J0.885857
G02 X97.667775 Y47.425879 Z-0.125000 I3.268535 J0.770885
G01 X97.667775 Y50.612835 Z-0.125000
G01 X100.554093 Y50.612835 Z-0.125000
G01 X100.213348 Y54.410628 Z-0.125000
G01 X97.667775 Y54.410628 Z-0.125000
G00 Z5.000000

(End cutting path id: path901)


(Start cutting path id: path899)
(Change tool to Default tool)

G00 Z5.000000
G00 X79.290038 Y43.282829

G01 Z-0.125000 F100.0(Penetrate)
G03 X80.111342 Y42.643986 Z-0.125000 I2.625922 J2.528558 F400.000000
G03 X81.294425 Y42.140835 Z-0.125000 I2.755027 J4.835524
G03 X82.587638 Y41.842286 Z-0.125000 I3.346785 J11.546994
G03 X83.439122 Y41.769025 Z-0.125000 I0.851484 J4.911583
G03 X85.297628 Y42.100592 Z-0.125000 I-0.000000 J5.374449
G03 X86.465746 Y42.884459 Z-0.125000 I-1.031958 J2.800120
G03 X87.186096 Y44.141832 Z-0.125000 I-2.591377 J2.319633
G03 X87.487985 Y46.071419 Z-0.125000 I-6.015730 J1.929587
G03 X87.219896 Y47.555506 Z-0.125000 I-4.241857 J-0.000000
G03 X86.525877 Y48.647543 Z-0.125000 I-2.925147 J-1.092457
G03 X85.497841 Y49.537635 Z-0.125000 I-4.689290 J-4.377301
G03 X84.080525 Y50.347256 Z-0.125000 I-5.275251 J-7.589427
G02 X83.631078 Y50.579010 Z-0.125000 I2.393778 J5.194022
G02 X83.338901 Y50.772184 Z-0.125000 I1.364091 J2.380743
G02 X83.104050 Y51.007399 Z-0.125000 I0.728690 J0.962414
G02 X83.058288 Y51.143997 Z-0.125000 I0.180993 J0.136598
G02 X83.126193 Y51.370048 Z-0.125000 I0.410208 J-0.000000
G02 X83.338901 Y51.568925 Z-0.125000 I0.521029 J-0.344076
G02 X83.631868 Y51.681510 Z-0.125000 I0.520085 J-0.915881
G02 X84.060482 Y51.728273 Z-0.125000 I0.428614 J-1.940905
G02 X84.573755 Y51.680953 Z-0.125000 I0.000000 J-2.807365
G02 X85.202982 Y51.515807 Z-0.125000 I-0.817563 J-4.396314
G02 X85.830312 Y51.271870 Z-0.125000 I-2.076334 J-6.268297
G02 X86.445703 Y50.958088 Z-0.125000 I-2.847587 J-6.345053
G01 X87.467942 Y54.012257 Z-0.125000
G03 X86.652608 Y54.659134 Z-0.125000 I-2.814357 J-2.709993
G03 X85.684036 Y55.074578 Z-0.125000 I-2.049787 J-3.442115
G03 X84.650917 Y55.321809 Z-0.125000 I-2.349860 J-7.537309
G03 X83.799912 Y55.393274 Z-0.125000 I-0.851005 J-5.031118
G03 X81.912115 Y55.063304 Z-0.125000 I-0.000000 J-5.565136
G03 X80.632979 Y54.251280 Z-0.125000 I1.179954 J-3.272203
G03 X79.820176 Y52.972680 Z-0.125000 I2.460991 J-2.462096
G03 X79.490476 Y51.090880 Z-0.125000 I5.205449 J-1.881800
G03 X79.758565 Y49.606793 Z-0.125000 I4.241857 J0.000000
G03 X80.452584 Y48.514756 Z-0.125000 I2.925147 J1.092457
G03 X81.510594 Y47.640002 Z-0.125000 I5.129572 J5.126986
G03 X82.958068 Y46.815043 Z-0.125000 I5.996887 J8.839789
G02 X83.361094 Y46.601769 Z-0.125000 I-1.301710 J-2.947304
G02 X83.639560 Y46.390115 Z-0.125000 I-1.003089 J-1.608739
G02 X83.874414 Y46.154899 Z-0.125000 I-0.728690 J-0.962423
G02 X83.920176 Y46.018302 Z-0.125000 I-0.180991 J-0.136598
G02 X83.858894 Y45.785634 Z-0.125000 I-0.472325 J-0.000000
G02 X83.679649 Y45.593374 Z-0.125000 I-0.490587 J0.277693
G02 X83.425502 Y45.479245 Z-0.125000 I-0.473985 J0.715453
G02 X83.078331 Y45.434026 Z-0.125000 I-0.347170 J1.310084
G02 X82.564824 Y45.483589 Z-0.125000 I0.000000 J2.684906
G02 X81.715347 Y45.699609 Z-0.125000 I1.482325 J7.607361
G02 X80.914565 Y46.009735 Z-0.125000 I2.321016 J7.182068
G02 X80.312277 Y46.336998 Z-0.125000 I1.989046 J4.378442
G01 X79.290038 Y43.282829 Z-0.125000
G00 Z5.000000

(End cutting path id: path899)


(Start cutting path id: path897)
(Change tool to Default tool)

G00 Z5.000000
G00 X74.482017 Y55.366717

G01 Z-0.125000 F100.0(Penetrate)
G02 X76.727388 Y54.184585 Z-0.125000 I0.000000 J-2.723523 F400.000000
G02 X77.909520 Y50.373813 Z-0.125000 I-5.551219 J-3.810772
G01 X77.909520 Y42.061164 Z-0.125000
G01 X74.261536 Y42.061164 Z-0.125000
G01 X74.261536 Y49.922329 Z-0.125000
G03 X74.204138 Y50.653562 Z-0.125000 I-4.686481 J0.000000
G03 X74.081141 Y51.064323 Z-0.125000 I-1.581923 J-0.249889
G03 X73.835193 Y51.335970 Z-0.125000 I-0.491499 J-0.197839
G03 X73.319472 Y51.462694 Z-0.125000 I-0.515722 J-0.986040
G03 X73.066264 Y51.426618 Z-0.125000 I0.000000 J-0.906646
G03 X72.497673 Y51.223671 Z-0.125000 I1.410824 J-4.850646
G03 X71.944058 Y50.969383 Z-0.125000 I4.270240 J-10.026596
G03 X71.475437 Y50.719070 Z-0.125000 I3.668567 J-7.431892
G01 X71.475437 Y50.373813 Z-0.125000
G01 X71.475437 Y42.061164 Z-0.125000
G01 X67.827450 Y42.061164 Z-0.125000
G01 X67.827450 Y49.922329 Z-0.125000
G03 X67.770051 Y50.653562 Z-0.125000 I-4.686481 J-0.000000
G03 X67.647054 Y51.064323 Z-0.125000 I-1.581923 J-0.249889
G03 X67.401109 Y51.335970 Z-0.125000 I-0.491495 J-0.197833
G03 X66.885388 Y51.462694 Z-0.125000 I-0.515721 J-0.986035
G03 X66.631793 Y51.427390 Z-0.125000 I-0.000000 J-0.928472
G03 X66.043544 Y51.223671 Z-0.125000 I1.499128 J-5.279978
G03 X65.489929 Y50.969383 Z-0.125000 I4.270240 J-10.026596
G03 X65.021307 Y50.719070 Z-0.125000 I3.668567 J-7.431892
G01 X65.021307 Y42.061164 Z-0.125000
G01 X61.373320 Y42.061164 Z-0.125000
G01 X61.373320 Y54.941790 Z-0.125000
G01 X63.538060 Y54.941790 Z-0.125000
G01 X64.179466 Y53.613891 Z-0.125000
G02 X66.429683 Y55.017200 Z-0.125000 I6.402421 J-7.760556
G02 X68.047934 Y55.366717 Z-0.125000 I1.618251 J-3.571460
G02 X69.705054 Y54.923537 Z-0.125000 I0.000000 J-3.319708
G02 X70.813988 Y53.773239 Z-0.125000 I-1.437742 J-2.495717
G02 X72.913051 Y55.040639 Z-0.125000 I5.772457 J-7.188389
G02 X74.482017 Y55.366717 Z-0.125000 I1.568966 J-3.611606
G01 X74.482017 Y55.366717 Z-0.125000
G00 Z5.000000

(End cutting path id: path897)


(Start cutting path id: path895)
(Change tool to Default tool)

G00 Z5.000000
G00 X59.966178 Y48.700661

G01 Z-0.125000 F100.0(Penetrate)
G03 X59.820001 Y50.534378 Z-0.125000 I-11.574633 J0.000000 F400.000000
G03 X59.424996 Y52.073526 Z-0.125000 I-8.527739 J-1.368292
G03 X58.741689 Y53.477758 Z-0.125000 I-6.100438 J-2.100138
G03 X57.861571 Y54.490302 Z-0.125000 I-3.997927 J-2.586280
G03 X56.728623 Y55.150151 Z-0.125000 I-2.314803 J-2.671923
G03 X55.316001 Y55.393274 Z-0.125000 I-1.412623 J-3.982328
G03 X53.902118 Y55.174922 Z-0.125000 I-0.000000 J-4.686790
G03 X52.630118 Y54.543419 Z-0.125000 I1.393183 J-4.403019
G03 X51.615582 Y53.582424 Z-0.125000 I2.668912 J-3.833638
G03 X50.766038 Y52.153200 Z-0.125000 I5.214346 J-4.066557
G03 X50.274313 Y50.546797 Z-0.125000 I6.819212 J-2.965840
G03 X50.084546 Y48.488195 Z-0.125000 I11.070986 J-2.058602
G03 X50.292597 Y46.411035 Z-0.125000 I10.473088 J-0.000000
G03 X50.826169 Y44.823194 Z-0.125000 I6.609420 J1.337435
G03 X51.739202 Y43.467869 Z-0.125000 I5.361470 J2.626624
G03 X52.870645 Y42.539205 Z-0.125000 I3.569000 J3.194733
G03 X54.249248 Y41.975421 Z-0.125000 I2.703912 J4.644365
G03 X55.897272 Y41.769025 Z-0.125000 I1.648024 J6.476343
G03 X57.062648 Y41.868987 Z-0.125000 I0.000000 J6.843044
G03 X58.202318 Y42.167395 Z-0.125000 I-1.182243 J6.840679
G03 X59.287946 Y42.657851 Z-0.125000 I-2.210723 J6.340206
G03 X59.946135 Y43.150041 Z-0.125000 I-1.568962 J2.784302
G01 X58.923899 Y46.416672 Z-0.125000
G02 X57.575874 Y45.751324 Z-0.125000 I-3.019993 J4.420385
G02 X56.258062 Y45.540261 Z-0.125000 I-1.317812 J4.008471
G02 X55.401581 Y45.669394 Z-0.125000 I-0.000000 J2.904886
G02 X54.794858 Y45.991745 Z-0.125000 I0.538868 J1.746406
G02 X54.355991 Y46.531546 Z-0.125000 I1.405053 J1.590635
G02 X54.053234 Y47.293087 Z-0.125000 I2.558713 J1.458188
G01 X59.966178 Y47.293087 Z-0.125000
G01 X59.966178 Y48.700661 Z-0.125000
G00 Z5.000000

(End cutting path id: path895)


(Start cutting path id: path895)
(Change tool to Default tool)

G00 Z5.000000
G00 X53.953017 Y49.683307

G01 Z-0.125000 F100.0(Penetrate)
G02 X54.038475 Y50.369393 Z-0.125000 I2.283906 J0.063884 F400.000000
G02 X54.313804 Y50.958088 Z-0.125000 I1.942512 J-0.549768
G02 X54.778415 Y51.391510 Z-0.125000 I1.318698 J-0.947859
G02 X55.215780 Y51.515807 Z-0.125000 I0.437365 J-0.707333
G02 X55.747478 Y51.364311 Z-0.125000 I0.000000 J-1.008784
G02 X56.157842 Y50.931532 Z-0.125000 I-0.618750 J-0.997648
G02 X56.397248 Y50.326412 Z-0.125000 I-2.283278 J-1.253263
G02 X56.478544 Y49.683307 Z-0.125000 I-2.503075 J-0.643105
G01 X53.953017 Y49.683307 Z-0.125000
G00 Z5.000000

(End cutting path id: path895)


(Start cutting path id: path893)
(Change tool to Default tool)

G00 Z5.000000
G00 X48.466315 Y42.061164

G01 Z-0.125000 F100.0(Penetrate)
G01 X48.466315 Y60.811106 Z-0.125000 F400.000000
G01 X44.818331 Y60.518966 Z-0.125000
G01 X44.818331 Y42.061164 Z-0.125000
G01 X48.466315 Y42.061164 Z-0.125000
G00 Z5.000000

(End cutting path id: path893)


(Start cutting path id: path891)
(Change tool to Default tool)

G00 Z5.000000
G00 X38.204163 Y55.393274

G01 Z-0.125000 F100.0(Penetrate)
G02 X40.231385 Y54.939663 Z-0.125000 I0.000000 J-4.756706 F400.000000
G02 X41.812061 Y53.693565 Z-0.125000 I-1.903160 J-4.039754
G02 X42.766700 Y51.841584 Z-0.125000 I-3.930155 J-3.197906
G02 X43.195091 Y48.674104 Z-0.125000 I-11.495805 J-3.167480
G02 X42.764043 Y45.450739 Z-0.125000 I-12.267631 J-0.000000
G02 X41.792018 Y43.521851 Z-0.125000 I-5.221587 J1.421954
G02 X40.178932 Y42.243598 Z-0.125000 I-3.503642 J2.764467
G02 X38.043814 Y41.769025 Z-0.125000 I-2.135118 J4.565687
G02 X36.810566 Y42.035028 Z-0.125000 I-0.000000 J2.991801
G02 X35.578416 Y42.884459 Z-0.125000 I1.735385 J3.835651
G01 X34.957055 Y42.061164 Z-0.125000
G01 X33.113021 Y42.061164 Z-0.125000
G01 X33.113021 Y60.518966 Z-0.125000
G01 X36.761005 Y60.811106 Z-0.125000
G01 X36.761005 Y55.048021 Z-0.125000
G02 X37.520480 Y55.312631 Z-0.125000 I1.692575 J-3.635749
G02 X38.204163 Y55.393274 Z-0.125000 I0.683684 J-2.857799
G01 X38.204163 Y55.393274 Z-0.125000
G00 Z5.000000

(End cutting path id: path891)


(Start cutting path id: path891)
(Change tool to Default tool)

G00 Z5.000000
G00 X37.803287 Y45.487143

G01 Z-0.125000 F100.0(Penetrate)
G03 X38.390662 Y45.678945 Z-0.125000 I-0.000000 J0.995293 F400.000000
G03 X38.965833 Y46.336998 Z-0.125000 I-1.175151 J1.607530
G03 X39.286071 Y47.222578 Z-0.125000 I-2.768720 J1.501900
G03 X39.426841 Y48.647543 Z-0.125000 I-7.141841 J1.424965
G03 X39.281598 Y50.068086 Z-0.125000 I-7.019414 J0.000000
G03 X38.965833 Y50.878414 Z-0.125000 I-2.549834 J-0.526921
G03 X38.385775 Y51.468734 Z-0.125000 I-1.436022 J-0.830912
G03 X37.642935 Y51.675155 Z-0.125000 I-0.742841 J-1.233402
G03 X37.253254 Y51.591228 Z-0.125000 I0.000000 J-0.946620
G03 X36.761005 Y51.276785 Z-0.125000 I0.836733 J-1.852396
G01 X36.761005 Y45.832397 Z-0.125000
G03 X37.361833 Y45.558356 Z-0.125000 I1.563631 J2.632556
G03 X37.803287 Y45.487143 Z-0.125000 I0.441454 J1.332702
G01 X37.803287 Y45.487143 Z-0.125000
G00 Z5.000000

(End cutting path id: path891)


(Start cutting path id: path889)
(Change tool to Default tool)

G00 Z5.000000
G00 X31.512640 Y48.435082

G01 Z-0.125000 F100.0(Penetrate)
G02 X31.304371 Y46.385273 Z-0.125000 I-10.191333 J-0.000000 F400.000000
G02 X30.771017 Y44.823194 Z-0.125000 I-6.407273 J1.315596
G02 X29.876937 Y43.466094 Z-0.125000 I-5.342077 J2.546383
G02 X28.766630 Y42.539205 Z-0.125000 I-3.523076 J3.091788
G02 X27.446877 Y41.971907 Z-0.125000 I-2.648139 J4.341805
G02 X25.920399 Y41.769025 Z-0.125000 I-1.526479 J5.641159
G02 X23.687512 Y42.235784 Z-0.125000 I0.000000 J5.574231
G02 X21.971754 Y43.495295 Z-0.125000 I1.943907 J4.446463
G02 X20.940214 Y45.413592 Z-0.125000 I4.008548 J3.392045
G02 X20.488508 Y48.567869 Z-0.125000 I10.787352 J3.154277
G02 X20.690140 Y50.621066 Z-0.125000 I10.554545 J0.000000
G02 X21.210087 Y52.206317 Z-0.125000 I6.770232 J-1.342677
G02 X22.120003 Y53.625226 Z-0.125000 I5.960318 J-2.821017
G02 X23.194431 Y54.569976 Z-0.125000 I3.638514 J-3.054613
G02 X24.520396 Y55.180620 Z-0.125000 I2.736586 J-4.197342
G02 X26.000574 Y55.393274 Z-0.125000 I1.480179 J-5.045067
G02 X27.561731 Y55.180334 Z-0.125000 I-0.000000 J-5.829227
G02 X28.866850 Y54.596537 Z-0.125000 I-1.285470 J-4.624500
G02 X29.934007 Y53.648644 Z-0.125000 I-2.476545 J-3.862802
G02 X30.811106 Y52.232874 Z-0.125000 I-4.824553 J-3.968487
G02 X31.312245 Y50.623140 Z-0.125000 I-6.472800 J-2.897973
G02 X31.512640 Y48.435082 Z-0.125000 I-11.845158 J-2.188058
G01 X31.512640 Y48.435082 Z-0.125000
G00 Z5.000000

(End cutting path id: path889)


(Start cutting path id: path889)
(Change tool to Default tool)

G00 Z5.000000
G00 X25.960486 Y45.699609

G01 Z-0.125000 F100.0(Penetrate)
G03 X26.722434 Y45.886500 Z-0.125000 I0.000000 J1.646656 F400.000000
G03 X27.283382 Y46.390115 Z-0.125000 I-0.703515 J1.347818
G03 X27.598533 Y47.124837 Z-0.125000 I-1.822172 J1.216550
G03 X27.744390 Y48.435082 Z-0.125000 I-5.812057 J1.310244
G03 X27.608976 Y49.728618 Z-0.125000 I-6.245945 J-0.000000
G03 X27.283382 Y50.612835 Z-0.125000 I-3.207220 J-0.678935
G03 X26.715578 Y51.253985 Z-0.125000 I-1.559712 J-0.809286
G03 X26.040662 Y51.462694 Z-0.125000 I-0.674917 J-0.986909
G03 X25.308395 Y51.265060 Z-0.125000 I-0.000000 J-1.455402
G03 X24.717766 Y50.692509 Z-0.125000 I0.861316 J-1.479427
G03 X24.397831 Y49.883333 Z-0.125000 I2.302456 J-1.378189
G03 X24.256757 Y48.567869 Z-0.125000 I6.062539 J-1.315464
G03 X24.391080 Y47.275702 Z-0.125000 I6.282356 J-0.000000
G03 X24.697722 Y46.469789 Z-0.125000 I2.708484 J0.569258
G03 X25.253776 Y45.898121 Z-0.125000 I1.390186 J0.795948
G03 X25.960486 Y45.699609 Z-0.125000 I0.706710 J1.158700
G01 X25.960486 Y45.699609 Z-0.125000
G00 Z5.000000

(End cutting path id: path889)


(Start cutting path id: path887)
(Change tool to Default tool)

G00 Z5.000000
G00 X16.829873 Y49.630189

G01 Z-0.125000 F100.0(Penetrate)
G02 X17.499804 Y50.198902 Z-0.125000 I3.342350 J-3.258279 F400.000000
G02 X18.313120 Y50.665953 Z-0.125000 I3.044006 J-4.359117
G02 X19.194142 Y50.977318 Z-0.125000 I2.105251 J-4.554774
G02 X19.896586 Y51.064323 Z-0.125000 I0.702445 J-2.792119
G01 X19.154963 Y54.941790 Z-0.125000
G03 X18.419061 Y54.838157 Z-0.125000 I0.000000 J-2.664644
G03 X17.491321 Y54.463745 Z-0.125000 I1.333631 J-4.641165
G03 X16.624735 Y53.935330 Z-0.125000 I3.949324 J-7.451584
G03 X15.887811 Y53.348308 Z-0.125000 I4.149562 J-5.965252
G01 X15.005880 Y54.915229 Z-0.125000
G01 X13.181887 Y54.915229 Z-0.125000
G01 X13.181887 Y42.061164 Z-0.125000
G01 X16.829873 Y42.061164 Z-0.125000
G01 X16.829873 Y49.630189 Z-0.125000
G00 Z5.000000

(End cutting path id: path887)


(Start cutting path id: path885)
(Change tool to Default tool)

G00 Z5.000000
G00 X6.805428 Y55.393274

G01 Z-0.125000 F100.0(Penetrate)
G02 X8.832648 Y54.939663 Z-0.125000 I0.000000 J-4.756701 F400.000000
G02 X10.413327 Y53.693565 Z-0.125000 I-1.903166 J-4.039766
G02 X11.367963 Y51.841584 Z-0.125000 I-3.930159 J-3.197904
G02 X11.796354 Y48.674104 Z-0.125000 I-11.495825 J-3.167480
G02 X11.365306 Y45.450739 Z-0.125000 I-12.267644 J0.000000
G02 X10.393283 Y43.521851 Z-0.125000 I-5.221589 J1.421953
G02 X8.780195 Y42.243598 Z-0.125000 I-3.503644 J2.764470
G02 X6.645077 Y41.769025 Z-0.125000 I-2.135118 J4.565689
G02 X5.978003 Y41.837352 Z-0.125000 I0.000000 J3.290452
G02 X5.362269 Y42.034604 Z-0.125000 I0.620164 J2.995535
G01 X5.362269 Y36.510541 Z-0.125000
G01 X1.714283 Y36.244962 Z-0.125000
G01 X1.714283 Y54.915229 Z-0.125000
G01 X3.538276 Y54.915229 Z-0.125000
G01 X4.099505 Y54.171606 Z-0.125000
G02 X4.734900 Y54.678714 Z-0.125000 I3.727710 J-4.019111
G02 X5.382313 Y55.048021 Z-0.125000 I2.599358 J-3.804678
G02 X6.103385 Y55.309332 Z-0.125000 I1.547144 J-3.143714
G02 X6.805428 Y55.393274 Z-0.125000 I0.702043 J-2.893784
G01 X6.805428 Y55.393274 Z-0.125000
G00 Z5.000000

(End cutting path id: path885)


(Start cutting path id: path885)
(Change tool to Default tool)

G00 Z5.000000
G00 X6.404551 Y45.487143

G01 Z-0.125000 F100.0(Penetrate)
G03 X6.991926 Y45.678945 Z-0.125000 I0.000000 J0.995292 F400.000000
G03 X7.567096 Y46.336998 Z-0.125000 I-1.175147 J1.607523
G03 X7.887335 Y47.222578 Z-0.125000 I-2.768714 J1.501901
G03 X8.028105 Y48.647543 Z-0.125000 I-7.141818 J1.424965
G03 X7.882862 Y50.068086 Z-0.125000 I-7.019392 J0.000000
G03 X7.567096 Y50.878414 Z-0.125000 I-2.549830 J-0.526922
G03 X6.987040 Y51.468734 Z-0.125000 I-1.436019 J-0.830907
G03 X6.244200 Y51.675155 Z-0.125000 I-0.742840 J-1.233399
G03 X5.854517 Y51.591227 Z-0.125000 I-0.000000 J-0.946626
G03 X5.362269 Y51.276785 Z-0.125000 I0.836724 J-1.852379
G01 X5.362269 Y45.832397 Z-0.125000
G03 X5.963096 Y45.558356 Z-0.125000 I1.563622 J2.632534
G03 X6.404551 Y45.487143 Z-0.125000 I0.441455 J1.332705
G01 X6.404551 Y45.487143 Z-0.125000
G00 Z5.000000

(End cutting path id: path885)


(Start cutting path id: path883)
(Change tool to Default tool)

G00 Z5.000000
G00 X137.417918 Y75.258654

G01 Z-0.125000 F100.0(Penetrate)
G01 X138.680681 Y78.020685 Z-0.125000 F400.000000
G01 X139.983534 Y75.258654 Z-0.125000
G01 X144.072486 Y75.258654 Z-0.125000
G01 X140.765246 Y81.393550 Z-0.125000
G01 X144.072486 Y88.139280 Z-0.125000
G01 X140.043665 Y88.139280 Z-0.125000
G01 X138.560418 Y85.031995 Z-0.125000
G01 X136.856689 Y88.537650 Z-0.125000
G01 X133.328966 Y87.422214 Z-0.125000
G01 X136.475856 Y81.659130 Z-0.125000
G01 X133.308923 Y75.258654 Z-0.125000
G01 X137.417918 Y75.258654 Z-0.125000
G00 Z5.000000

(End cutting path id: path883)


(Start cutting path id: path881)
(Change tool to Default tool)

G00 Z5.000000
G00 X132.703536 Y81.898152

G01 Z-0.125000 F100.0(Penetrate)
G03 X132.557359 Y83.731868 Z-0.125000 I-11.574558 J-0.000000 F400.000000
G03 X132.162351 Y85.271017 Z-0.125000 I-8.527726 J-1.368297
G03 X131.479046 Y86.675250 Z-0.125000 I-6.100419 J-2.100119
G03 X130.598929 Y87.687794 Z-0.125000 I-3.997914 J-2.586265
G03 X129.465979 Y88.347643 Z-0.125000 I-2.314809 J-2.671939
G03 X128.053356 Y88.590766 Z-0.125000 I-1.412623 J-3.982335
G03 X126.639474 Y88.372413 Z-0.125000 I-0.000000 J-4.686779
G03 X125.367477 Y87.740910 Z-0.125000 I1.393180 J-4.402997
G03 X124.352940 Y86.779915 Z-0.125000 I2.668912 J-3.833638
G03 X123.503396 Y85.350691 Z-0.125000 I5.214346 J-4.066557
G03 X123.011672 Y83.744288 Z-0.125000 I6.819215 J-2.965841
G03 X122.821904 Y81.685688 Z-0.125000 I11.070967 J-2.058600
G03 X123.029955 Y79.608525 Z-0.125000 I10.473109 J0.000000
G03 X123.563528 Y78.020685 Z-0.125000 I6.609405 J1.337432
G03 X124.476560 Y76.665359 Z-0.125000 I5.361463 J2.626618
G03 X125.608004 Y75.736698 Z-0.125000 I3.568983 J3.194720
G03 X126.986604 Y75.172912 Z-0.125000 I2.703905 J4.644338
G03 X128.634627 Y74.966516 Z-0.125000 I1.648024 J6.476326
G03 X129.800003 Y75.066478 Z-0.125000 I-0.000000 J6.843057
G03 X130.939673 Y75.364886 Z-0.125000 I-1.182243 J6.840689
G03 X132.025304 Y75.855342 Z-0.125000 I-2.210709 J6.340188
G03 X132.683491 Y76.347531 Z-0.125000 I-1.568942 J2.784267
G01 X131.661254 Y79.614165 Z-0.125000
G02 X130.313229 Y78.948814 Z-0.125000 I-3.019996 J4.420376
G02 X128.995418 Y78.737751 Z-0.125000 I-1.317811 J4.008458
G02 X128.138939 Y78.866885 Z-0.125000 I0.000000 J2.904859
G02 X127.532216 Y79.189237 Z-0.125000 I0.538872 J1.746406
G02 X127.093349 Y79.729037 Z-0.125000 I1.405049 J1.590632
G02 X126.790592 Y80.490578 Z-0.125000 I2.558710 J1.458187
G01 X132.703536 Y80.490578 Z-0.125000
G01 X132.703536 Y81.898152 Z-0.125000
G00 Z5.000000

(End cutting path id: path881)


(Start cutting path id: path881)
(Change tool to Default tool)

G00 Z5.000000
G00 X126.690372 Y82.880798

G01 Z-0.125000 F100.0(Penetrate)
G02 X126.775831 Y83.566883 Z-0.125000 I2.283888 J0.063884 F400.000000
G02 X127.051162 Y84.155581 Z-0.125000 I1.942525 J-0.549775
G02 X127.515771 Y84.589002 Z-0.125000 I1.318689 J-0.947847
G02 X127.953135 Y84.713299 Z-0.125000 I0.437365 J-0.707331
G02 X128.484834 Y84.561803 Z-0.125000 I-0.000000 J-1.008786
G02 X128.895200 Y84.129023 Z-0.125000 I-0.618754 J-0.997657
G02 X129.134607 Y83.523903 Z-0.125000 I-2.283282 J-1.253264
G02 X129.215902 Y82.880798 Z-0.125000 I-2.503076 J-0.643105
G01 X126.690372 Y82.880798 Z-0.125000
G00 Z5.000000

(End cutting path id: path881)


(Start cutting path id: path879)
(Change tool to Default tool)

G00 Z5.000000
G00 X121.203674 Y75.258654

G01 Z-0.125000 F100.0(Penetrate)
G01 X121.203674 Y94.008596 Z-0.125000 F400.000000
G01 X117.555687 Y93.716459 Z-0.125000
G01 X117.555687 Y75.258654 Z-0.125000
G01 X121.203674 Y75.258654 Z-0.125000
G00 Z5.000000

(End cutting path id: path879)


(Start cutting path id: path877)
(Change tool to Default tool)

G00 Z5.000000
G00 X110.978787 Y88.590766

G01 Z-0.125000 F100.0(Penetrate)
G02 X113.006006 Y88.137155 Z-0.125000 I-0.000000 J-4.756694 F400.000000
G02 X114.586685 Y86.891054 Z-0.125000 I-1.903169 J-4.039768
G02 X115.541322 Y85.039075 Z-0.125000 I-3.930153 J-3.197900
G02 X115.969712 Y81.871594 Z-0.125000 I-11.495833 J-3.167481
G02 X115.538664 Y78.648230 Z-0.125000 I-12.267624 J0.000000
G02 X114.566640 Y76.719344 Z-0.125000 I-5.221578 J1.421952
G02 X112.953553 Y75.441090 Z-0.125000 I-3.503644 J2.764467
G02 X110.818435 Y74.966516 Z-0.125000 I-2.135118 J4.565684
G02 X110.151360 Y75.034844 Z-0.125000 I-0.000000 J3.290439
G02 X109.535629 Y75.232096 Z-0.125000 I0.620161 J2.995506
G01 X109.535629 Y69.708033 Z-0.125000
G01 X105.887642 Y69.442454 Z-0.125000
G01 X105.887642 Y88.112722 Z-0.125000
G01 X107.711634 Y88.112722 Z-0.125000
G01 X108.272862 Y87.369098 Z-0.125000
G02 X108.908258 Y87.876206 Z-0.125000 I3.727709 J-4.019121
G02 X109.555672 Y88.245512 Z-0.125000 I2.599355 J-3.804684
G02 X110.276743 Y88.506824 Z-0.125000 I1.547141 J-3.143697
G02 X110.978787 Y88.590766 Z-0.125000 I0.702044 J-2.893783
G01 X110.978787 Y88.590766 Z-0.125000
G00 Z5.000000

(End cutting path id: path877)


(Start cutting path id: path877)
(Change tool to Default tool)

G00 Z5.000000
G00 X110.577908 Y78.684635

G01 Z-0.125000 F100.0(Penetrate)
G03 X111.165285 Y78.876437 Z-0.125000 I0.000000 J0.995295 F400.000000
G03 X111.740454 Y79.534491 Z-0.125000 I-1.175144 J1.607518
G03 X112.060692 Y80.420068 Z-0.125000 I-2.768699 J1.501893
G03 X112.201462 Y81.845036 Z-0.125000 I-7.141854 J1.424968
G03 X112.056219 Y83.265578 Z-0.125000 I-7.019410 J0.000000
G03 X111.740454 Y84.075907 Z-0.125000 I-2.549844 J-0.526924
G03 X111.160399 Y84.666225 Z-0.125000 I-1.436013 J-0.830903
G03 X110.417559 Y84.872647 Z-0.125000 I-0.742840 J-1.233402
G03 X110.027875 Y84.788719 Z-0.125000 I-0.000000 J-0.946628
G03 X109.535629 Y84.474277 Z-0.125000 I0.836719 J-1.852370
G01 X109.535629 Y79.029889 Z-0.125000
G03 X110.136454 Y78.755848 Z-0.125000 I1.563622 J2.632522
G03 X110.577908 Y78.684635 Z-0.125000 I0.441454 J1.332695
G01 X110.577908 Y78.684635 Z-0.125000
G00 Z5.000000

(End cutting path id: path877)


(Start cutting path id: path875)
(Change tool to Default tool)

G00 Z5.000000
G00 X100.398129 Y88.564208

G01 Z-0.125000 F100.0(Penetrate)
G02 X102.643500 Y87.382076 Z-0.125000 I-0.000000 J-2.723523 F400.000000
G02 X103.825632 Y83.571306 Z-0.125000 I-5.551215 J-3.810770
G01 X103.825632 Y75.258654 Z-0.125000
G01 X100.177645 Y75.258654 Z-0.125000
G01 X100.177645 Y83.119820 Z-0.125000
G03 X100.120246 Y83.851053 Z-0.125000 I-4.686478 J-0.000000
G03 X99.997250 Y84.261813 Z-0.125000 I-1.581916 J-0.249888
G03 X99.751304 Y84.533459 Z-0.125000 I-0.491495 J-0.197833
G03 X99.235583 Y84.660183 Z-0.125000 I-0.515721 J-0.986036
G03 X98.982376 Y84.624108 Z-0.125000 I-0.000000 J-0.906647
G03 X98.413785 Y84.421161 Z-0.125000 I1.410823 J-4.850651
G03 X97.860170 Y84.166873 Z-0.125000 I4.270143 J-10.026385
G03 X97.391548 Y83.916559 Z-0.125000 I3.668503 J-7.431751
G01 X97.391548 Y83.571306 Z-0.125000
G01 X97.391548 Y75.258654 Z-0.125000
G01 X93.743561 Y75.258654 Z-0.125000
G01 X93.743561 Y83.119820 Z-0.125000
G03 X93.686162 Y83.851053 Z-0.125000 I-4.686478 J-0.000000
G03 X93.563166 Y84.261813 Z-0.125000 I-1.581916 J-0.249888
G03 X93.317218 Y84.533460 Z-0.125000 I-0.491500 J-0.197839
G03 X92.801499 Y84.660183 Z-0.125000 I-0.515719 J-0.986032
G03 X92.547905 Y84.624880 Z-0.125000 I0.000000 J-0.928474
G03 X91.959655 Y84.421161 Z-0.125000 I1.499128 J-5.279984
G03 X91.406040 Y84.166873 Z-0.125000 I4.270143 J-10.026385
G03 X90.937419 Y83.916559 Z-0.125000 I3.668503 J-7.431751
G01 X90.937419 Y75.258654 Z-0.125000
G01 X87.289432 Y75.258654 Z-0.125000
G01 X87.289432 Y88.139280 Z-0.125000
G01 X89.454171 Y88.139280 Z-0.125000
G01 X90.095574 Y86.811381 Z-0.125000
G02 X92.345792 Y88.214691 Z-0.125000 I6.402422 J-7.760554
G02 X93.964042 Y88.564208 Z-0.125000 I1.618250 J-3.571459
G02 X95.621163 Y88.121028 Z-0.125000 I0.000000 J-3.319710
G02 X96.730099 Y86.970729 Z-0.125000 I-1.437746 J-2.495726
G02 X98.829163 Y88.238130 Z-0.125000 I5.772459 J-7.188387
G02 X100.398129 Y88.564208 Z-0.125000 I1.568966 J-3.611603
G01 X100.398129 Y88.564208 Z-0.125000
G00 Z5.000000

(End cutting path id: path875)


(Start cutting path id: path873)
(Change tool to Default tool)

G00 Z5.000000
G00 X85.889487 Y81.632572

G01 Z-0.125000 F100.0(Penetrate)
G02 X85.681218 Y79.582766 Z-0.125000 I-10.191320 J0.000000 F400.000000
G02 X85.147863 Y78.020685 Z-0.125000 I-6.407290 J1.315600
G02 X84.253783 Y76.663585 Z-0.125000 I-5.342070 J2.546377
G02 X83.143476 Y75.736698 Z-0.125000 I-3.523059 J3.091775
G02 X81.823724 Y75.169398 Z-0.125000 I-2.648140 J4.341799
G02 X80.297245 Y74.966516 Z-0.125000 I-1.526479 J5.641154
G02 X78.064359 Y75.433275 Z-0.125000 I-0.000000 J5.574229
G02 X76.348602 Y76.692785 Z-0.125000 I1.943906 J4.446462
G02 X75.317061 Y78.611084 Z-0.125000 I4.008552 J3.392048
G02 X74.865354 Y81.765362 Z-0.125000 I10.787357 J3.154278
G02 X75.066987 Y83.818557 Z-0.125000 I10.554507 J0.000000
G02 X75.586935 Y85.403807 Z-0.125000 I6.770217 J-1.342678
G02 X76.496851 Y86.822716 Z-0.125000 I5.960332 J-2.821024
G02 X77.571279 Y87.767468 Z-0.125000 I3.638529 J-3.054624
G02 X78.897243 Y88.378112 Z-0.125000 I2.736583 J-4.197335
G02 X80.377422 Y88.590766 Z-0.125000 I1.480179 J-5.045068
G02 X81.938577 Y88.377825 Z-0.125000 I-0.000000 J-5.829202
G02 X83.243696 Y87.794026 Z-0.125000 I-1.285473 J-4.624496
G02 X84.310853 Y86.846134 Z-0.125000 I-2.476538 J-3.862797
G02 X85.187952 Y85.430365 Z-0.125000 I-4.824548 J-3.968484
G02 X85.689091 Y83.820631 Z-0.125000 I-6.472800 J-2.897972
G02 X85.889487 Y81.632572 Z-0.125000 I-11.845162 J-2.188059
G01 X85.889487 Y81.632572 Z-0.125000
G00 Z5.000000

(End cutting path id: path873)


(Start cutting path id: path873)
(Change tool to Default tool)

G00 Z5.000000
G00 X80.337333 Y78.897099

G01 Z-0.125000 F100.0(Penetrate)
G03 X81.099280 Y79.083991 Z-0.125000 I0.000000 J1.646652 F400.000000
G03 X81.660229 Y79.587606 Z-0.125000 I-0.703517 J1.347819
G03 X81.975381 Y80.322330 Z-0.125000 I-1.822173 J1.216556
G03 X82.121239 Y81.632572 Z-0.125000 I-5.812007 J1.310242
G03 X81.985825 Y82.926108 Z-0.125000 I-6.245913 J-0.000000
G03 X81.660229 Y83.810328 Z-0.125000 I-3.207219 J-0.678939
G03 X81.092425 Y84.451475 Z-0.125000 I-1.559707 J-0.809286
G03 X80.417508 Y84.660183 Z-0.125000 I-0.674917 J-0.986913
G03 X79.685242 Y84.462550 Z-0.125000 I-0.000000 J-1.455403
G03 X79.094613 Y83.890001 Z-0.125000 I0.861315 J-1.479430
G03 X78.774679 Y83.080824 Z-0.125000 I2.302471 J-1.378191
G03 X78.633605 Y81.765362 Z-0.125000 I6.062546 J-1.315462
G03 X78.767928 Y80.473194 Z-0.125000 I6.282370 J0.000000
G03 X79.074570 Y79.667281 Z-0.125000 I2.708492 J0.569258
G03 X79.630624 Y79.095611 Z-0.125000 I1.390188 J0.795948
G03 X80.337333 Y78.897099 Z-0.125000 I0.706709 J1.158696
G01 X80.337333 Y78.897099 Z-0.125000
G00 Z5.000000

(End cutting path id: path873)


(Start cutting path id: path871)
(Change tool to Default tool)

G00 Z5.000000
G00 X74.343590 Y87.289425

G01 Z-0.125000 F100.0(Penetrate)
G03 X72.945246 Y88.226967 Z-0.125000 I-2.817256 J-2.690349 F400.000000
G03 X71.016305 Y88.590766 Z-0.125000 I-1.928941 J-4.931940
G03 X69.520326 Y88.372856 Z-0.125000 I0.000000 J-5.243986
G03 X68.250251 Y87.767468 Z-0.125000 I1.295777 J-4.353455
G03 X67.218593 Y86.802951 Z-0.125000 I2.643522 J-3.861534
G03 X66.366124 Y85.377249 Z-0.125000 I5.084211 J-4.007707
G03 X65.890181 Y83.772778 Z-0.125000 I6.955042 J-2.935939
G03 X65.704678 Y81.685688 Z-0.125000 I11.648146 J-2.087090
G03 X66.136545 Y78.651846 Z-0.125000 I10.872234 J0.000000
G03 X67.147837 Y76.719344 Z-0.125000 I5.289026 J1.536926
G03 X68.831785 Y75.438339 Z-0.125000 I3.641876 J3.040116
G03 X71.016305 Y74.966516 Z-0.125000 I2.184520 J4.821206
G03 X72.945246 Y75.330315 Z-0.125000 I0.000000 J5.295737
G03 X74.343590 Y76.267858 Z-0.125000 I-1.418913 J3.627892
G01 X73.321351 Y79.587606 Z-0.125000
G02 X72.742611 Y79.222706 Z-0.125000 I-3.619469 J5.099155
G02 X72.319157 Y79.029889 Z-0.125000 I-1.406337 J2.527124
G02 X71.873068 Y78.931882 Z-0.125000 I-0.864618 J2.871200
G02 X71.377095 Y78.897099 Z-0.125000 I-0.495973 J3.518621
G02 X70.684520 Y79.076047 Z-0.125000 I0.000000 J1.429699
G02 X70.034154 Y79.640723 Z-0.125000 I1.004090 J1.813329
G02 X69.640685 Y80.440547 Z-0.125000 I1.890179 J1.426558
G02 X69.472926 Y81.685688 Z-0.125000 I4.536957 J1.245141
G02 X69.636808 Y82.963043 Z-0.125000 I5.060003 J0.000000
G02 X70.034154 Y83.836885 Z-0.125000 I2.720360 J-0.709718
G02 X70.712563 Y84.472699 Z-0.125000 I1.883405 J-1.329744
G02 X71.377095 Y84.660183 Z-0.125000 I0.664533 J-1.083967
G02 X71.890349 Y84.617081 Z-0.125000 I0.000000 J-3.077446
G02 X72.319157 Y84.500835 Z-0.125000 I-0.381890 J-2.257724
G02 X72.722512 Y84.331973 Z-0.125000 I-0.724777 J-2.297424
G02 X73.321351 Y83.969675 Z-0.125000 I-2.890215 J-5.453265
G01 X74.343590 Y87.289425 Z-0.125000
G00 Z5.000000

(End cutting path id: path871)


(Start cutting path id: path869)
(Change tool to Default tool)

G00 Z5.000000
G00 X60.475105 Y81.898152

G01 Z-0.125000 F100.0(Penetrate)
G03 X60.328928 Y83.731868 Z-0.125000 I-11.574620 J0.000000 F400.000000
G03 X59.933922 Y85.271017 Z-0.125000 I-8.527763 J-1.368296
G03 X59.250616 Y86.675250 Z-0.125000 I-6.100442 J-2.100138
G03 X58.370497 Y87.687794 Z-0.125000 I-3.997924 J-2.586277
G03 X57.237550 Y88.347642 Z-0.125000 I-2.314800 J-2.671921
G03 X55.824925 Y88.590766 Z-0.125000 I-1.412626 J-3.982342
G03 X54.411045 Y88.372414 Z-0.125000 I0.000000 J-4.686770
G03 X53.139045 Y87.740910 Z-0.125000 I1.393187 J-4.403021
G03 X52.124509 Y86.779915 Z-0.125000 I2.668912 J-3.833638
G03 X51.274965 Y85.350691 Z-0.125000 I5.214346 J-4.066557
G03 X50.783240 Y83.744288 Z-0.125000 I6.819215 J-2.965841
G03 X50.593473 Y81.685688 Z-0.125000 I11.070967 J-2.058600
G03 X50.801524 Y79.608525 Z-0.125000 I10.473109 J0.000000
G03 X51.335096 Y78.020685 Z-0.125000 I6.609405 J1.337432
G03 X52.248129 Y76.665359 Z-0.125000 I5.361463 J2.626618
G03 X53.379572 Y75.736698 Z-0.125000 I3.568983 J3.194720
G03 X54.758173 Y75.172913 Z-0.125000 I2.703903 J4.644334
G03 X56.406199 Y74.966516 Z-0.125000 I1.648026 J6.476344
G03 X57.571575 Y75.066478 Z-0.125000 I0.000000 J6.843057
G03 X58.711245 Y75.364886 Z-0.125000 I-1.182243 J6.840689
G03 X59.796873 Y75.855341 Z-0.125000 I-2.210719 J6.340201
G03 X60.455062 Y76.347531 Z-0.125000 I-1.568961 J2.784301
G01 X59.432823 Y79.614165 Z-0.125000
G02 X58.084800 Y78.948814 Z-0.125000 I-3.019988 J4.420354
G02 X56.766989 Y78.737751 Z-0.125000 I-1.317811 J4.008453
G02 X55.910508 Y78.866885 Z-0.125000 I-0.000000 J2.904873
G02 X55.303785 Y79.189237 Z-0.125000 I0.538870 J1.746404
G02 X54.864918 Y79.729037 Z-0.125000 I1.405049 J1.590632
G02 X54.562161 Y80.490578 Z-0.125000 I2.558710 J1.458187
G01 X60.475105 Y80.490578 Z-0.125000
G01 X60.475105 Y81.898152 Z-0.125000
G00 Z5.000000

(End cutting path id: path869)


(Start cutting path id: path869)
(Change tool to Default tool)

G00 Z5.000000
G00 X54.461944 Y82.880798

G01 Z-0.125000 F100.0(Penetrate)
G02 X54.547402 Y83.566883 Z-0.125000 I2.283905 J0.063884 F400.000000
G02 X54.822731 Y84.155581 Z-0.125000 I1.942530 J-0.549772
G02 X55.287342 Y84.589002 Z-0.125000 I1.318697 J-0.947859
G02 X55.724707 Y84.713299 Z-0.125000 I0.437365 J-0.707334
G02 X56.256405 Y84.561803 Z-0.125000 I-0.000000 J-1.008783
G02 X56.666769 Y84.129023 Z-0.125000 I-0.618751 J-0.997648
G02 X56.906175 Y83.523903 Z-0.125000 I-2.283282 J-1.253264
G02 X56.987471 Y82.880798 Z-0.125000 I-2.503076 J-0.643105
G01 X54.461944 Y82.880798 Z-0.125000
G00 Z5.000000

(End cutting path id: path869)


(Start cutting path id: path867)
(Change tool to Default tool)

G00 Z5.000000
G00 X46.176619 Y75.258654

G01 Z-0.125000 F100.0(Penetrate)
G01 X50.004998 Y88.139280 Z-0.125000 F400.000000
G01 X46.377057 Y88.139280 Z-0.125000
G01 X44.512976 Y80.862390 Z-0.125000
G01 X42.568721 Y88.617324 Z-0.125000
G01 X39.201350 Y87.342540 Z-0.125000
G01 X42.729070 Y75.258654 Z-0.125000
G01 X46.176619 Y75.258654 Z-0.125000
G00 Z5.000000

(End cutting path id: path867)


(Start cutting path id: path865)
(Change tool to Default tool)

G00 Z5.000000
G00 X37.583117 Y75.258654

G01 Z-0.125000 F100.0(Penetrate)
G01 X37.583117 Y94.008596 Z-0.125000 F400.000000
G01 X33.935133 Y93.716459 Z-0.125000
G01 X33.935133 Y75.258654 Z-0.125000
G01 X37.583117 Y75.258654 Z-0.125000
G00 Z5.000000

(End cutting path id: path865)


(Start cutting path id: path863)
(Change tool to Default tool)

G00 Z5.000000
G00 X32.334753 Y81.632572

G01 Z-0.125000 F100.0(Penetrate)
G02 X32.126483 Y79.582766 Z-0.125000 I-10.191320 J0.000000 F400.000000
G02 X31.593129 Y78.020685 Z-0.125000 I-6.407290 J1.315600
G02 X30.699049 Y76.663585 Z-0.125000 I-5.342070 J2.546377
G02 X29.588742 Y75.736698 Z-0.125000 I-3.523059 J3.091775
G02 X28.268989 Y75.169398 Z-0.125000 I-2.648140 J4.341799
G02 X26.742510 Y74.966516 Z-0.125000 I-1.526479 J5.641154
G02 X24.509625 Y75.433275 Z-0.125000 I0.000000 J5.574228
G02 X22.793867 Y76.692785 Z-0.125000 I1.943907 J4.446463
G02 X21.762326 Y78.611084 Z-0.125000 I4.008553 J3.392047
G02 X21.310620 Y81.765362 Z-0.125000 I10.787359 J3.154278
G02 X21.512252 Y83.818557 Z-0.125000 I10.554523 J0.000000
G02 X22.032200 Y85.403807 Z-0.125000 I6.770224 J-1.342677
G02 X22.942116 Y86.822716 Z-0.125000 I5.960334 J-2.821025
G02 X24.016544 Y87.767468 Z-0.125000 I3.638530 J-3.054623
G02 X25.342508 Y88.378112 Z-0.125000 I2.736585 J-4.197341
G02 X26.822688 Y88.590766 Z-0.125000 I1.480179 J-5.045071
G02 X28.383842 Y88.377825 Z-0.125000 I-0.000000 J-5.829202
G02 X29.688962 Y87.794026 Z-0.125000 I-1.285473 J-4.624496
G02 X30.756119 Y86.846134 Z-0.125000 I-2.476538 J-3.862797
G02 X31.633218 Y85.430365 Z-0.125000 I-4.824548 J-3.968484
G02 X32.134357 Y83.820631 Z-0.125000 I-6.472800 J-2.897972
G02 X32.334753 Y81.632572 Z-0.125000 I-11.845162 J-2.188059
G01 X32.334753 Y81.632572 Z-0.125000
G00 Z5.000000

(End cutting path id: path863)


(Start cutting path id: path863)
(Change tool to Default tool)

G00 Z5.000000
G00 X26.782599 Y78.897099

G01 Z-0.125000 F100.0(Penetrate)
G03 X27.544545 Y79.083991 Z-0.125000 I-0.000000 J1.646652 F400.000000
G03 X28.105494 Y79.587606 Z-0.125000 I-0.703517 J1.347819
G03 X28.420647 Y80.322330 Z-0.125000 I-1.822173 J1.216556
G03 X28.566505 Y81.632572 Z-0.125000 I-5.812007 J1.310242
G03 X28.431091 Y82.926108 Z-0.125000 I-6.245913 J-0.000000
G03 X28.105494 Y83.810328 Z-0.125000 I-3.207219 J-0.678939
G03 X27.537691 Y84.451475 Z-0.125000 I-1.559707 J-0.809286
G03 X26.862774 Y84.660183 Z-0.125000 I-0.674917 J-0.986913
G03 X26.130507 Y84.462550 Z-0.125000 I-0.000000 J-1.455403
G03 X25.539879 Y83.890001 Z-0.125000 I0.861314 J-1.479426
G03 X25.219944 Y83.080824 Z-0.125000 I2.302466 J-1.378192
G03 X25.078870 Y81.765362 Z-0.125000 I6.062530 J-1.315462
G03 X25.213193 Y80.473194 Z-0.125000 I6.282365 J0.000000
G03 X25.519835 Y79.667281 Z-0.125000 I2.708491 J0.569259
G03 X26.075890 Y79.095611 Z-0.125000 I1.390189 J0.795949
G03 X26.782599 Y78.897099 Z-0.125000 I0.706709 J1.158697
G01 X26.782599 Y78.897099 Z-0.125000
G00 Z5.000000

(End cutting path id: path863)


(Start cutting path id: path861)
(Change tool to Default tool)

G00 Z5.000000
G00 X12.307473 Y76.480322

G01 Z-0.125000 F100.0(Penetrate)
G03 X13.128777 Y75.841478 Z-0.125000 I2.625914 J2.528544 F400.000000
G03 X14.311861 Y75.338328 Z-0.125000 I2.755010 J4.835497
G03 X15.605072 Y75.039778 Z-0.125000 I3.346783 J11.546916
G03 X16.456556 Y74.966516 Z-0.125000 I0.851484 J4.911552
G03 X18.315063 Y75.298084 Z-0.125000 I0.000000 J5.374445
G03 X19.483181 Y76.081952 Z-0.125000 I-1.031960 J2.800124
G03 X20.203530 Y77.339325 Z-0.125000 I-2.591378 J2.319631
G03 X20.505419 Y79.268911 Z-0.125000 I-6.015737 J1.929586
G03 X20.237331 Y80.752999 Z-0.125000 I-4.241869 J0.000000
G03 X19.543313 Y81.845036 Z-0.125000 I-2.925144 J-1.092454
G03 X18.515277 Y82.735125 Z-0.125000 I-4.689301 J-4.377326
G03 X17.097960 Y83.544747 Z-0.125000 I-5.275284 J-7.589483
G02 X16.648512 Y83.776500 Z-0.125000 I2.393639 J5.193772
G02 X16.356336 Y83.969675 Z-0.125000 I1.364026 J2.380625
G02 X16.121483 Y84.204890 Z-0.125000 I0.728682 J0.962415
G02 X16.075722 Y84.341487 Z-0.125000 I0.180990 J0.136597
G02 X16.143626 Y84.567538 Z-0.125000 I0.410208 J0.000000
G02 X16.356336 Y84.766415 Z-0.125000 I0.521030 J-0.344078
G02 X16.649301 Y84.879001 Z-0.125000 I0.520082 J-0.915875
G02 X17.077916 Y84.925763 Z-0.125000 I0.428614 J-1.940907
G02 X17.591190 Y84.878443 Z-0.125000 I0.000000 J-2.807394
G02 X18.220417 Y84.713299 Z-0.125000 I-0.817560 J-4.396334
G02 X18.847745 Y84.469361 Z-0.125000 I-2.076452 J-6.268566
G02 X19.463137 Y84.155581 Z-0.125000 I-2.847722 J-6.345362
G01 X20.485375 Y87.209750 Z-0.125000
G03 X19.670042 Y87.856625 Z-0.125000 I-2.814365 J-2.710009
G03 X18.701470 Y88.272070 Z-0.125000 I-2.049805 J-3.442144
G03 X17.668350 Y88.519301 Z-0.125000 I-2.349865 J-7.537349
G03 X16.817345 Y88.590766 Z-0.125000 I-0.851005 J-5.031129
G03 X14.929549 Y88.260796 Z-0.125000 I-0.000000 J-5.565136
G03 X13.650413 Y87.448772 Z-0.125000 I1.179955 J-3.272208
G03 X12.837610 Y86.170170 Z-0.125000 I2.461009 J-2.462102
G03 X12.507911 Y84.288371 Z-0.125000 I5.205454 J-1.881799
G03 X12.776000 Y82.804283 Z-0.125000 I4.241869 J-0.000000
G03 X13.470018 Y81.712246 Z-0.125000 I2.925144 J1.092454
G03 X14.528027 Y80.837493 Z-0.125000 I5.129549 J5.126960
G03 X15.975502 Y80.012535 Z-0.125000 I5.996867 J8.839770
G02 X16.378528 Y79.799260 Z-0.125000 I-1.301736 J-2.947342
G02 X16.656994 Y79.587606 Z-0.125000 I-1.003105 J-1.608762
G02 X16.891847 Y79.352392 Z-0.125000 I-0.728678 J-0.962411
G02 X16.937609 Y79.215795 Z-0.125000 I-0.180991 J-0.136598
G02 X16.876327 Y78.983126 Z-0.125000 I-0.472327 J-0.000000
G02 X16.697082 Y78.790867 Z-0.125000 I-0.490585 J0.277691
G02 X16.442936 Y78.676738 Z-0.125000 I-0.473984 J0.715449
G02 X16.095766 Y78.631519 Z-0.125000 I-0.347170 J1.310079
G02 X15.582257 Y78.681082 Z-0.125000 I-0.000000 J2.684938
G02 X14.732782 Y78.897099 Z-0.125000 I1.482314 J7.607382
G02 X13.931999 Y79.207225 Z-0.125000 I2.321012 J7.182042
G02 X13.329710 Y79.534491 Z-0.125000 I1.989053 J4.378443
G01 X12.307473 Y76.480322 Z-0.125000
G00 Z5.000000

(End cutting path id: path861)


(Start cutting path id: path859)
(Change tool to Default tool)

G00 Z5.000000
G00 X5.843322 Y75.258654

G01 Z-0.125000 F100.0(Penetrate)
G01 X5.843322 Y93.318089 Z-0.125000 F400.000000
G01 X2.195336 Y93.318089 Z-0.125000
G01 X2.195336 Y75.258654 Z-0.125000
G01 X5.843322 Y75.258654 Z-0.125000
G00 Z5.000000

(End cutting path id: path859)


(Footer)
M5
G00 X0.0000 Y0.0000
M2
(Using default footer. To add your own footer create file "footer" in the output dir.)
(end)
%